( Made using CamBam - http://www.cambam.co.uk )
( lil_gate_sequencer_panel 2/1/2016 11:41:56 PM )
( T3 : 3.175 )
G21 G90 G64 G40
G0 Z3.0
( T3 : 3.175 )
T3 M6
( holes )
G17
M3 S1000
G0 X7.1068 Y3.047
G0 Z3.0
G0 X7.1193 Y3.047
G1 F1000.0 Z0.0
G2 F2000.0 X7.1005 Y3.0362 Z-0.0333 I-0.0125 J0.0
G2 Y3.0578 Z-0.0667 I0.0062 J0.0108
G2 X7.1193 Y3.047 Z-0.1 I0.0063 J-0.0108
G2 X7.1005 Y3.0362 Z-0.1333 I-0.0125 J0.0
G2 Y3.0578 Z-0.1667 I0.0062 J0.0108
G2 X7.1193 Y3.047 Z-0.2 I0.0063 J-0.0108
G2 X7.1005 Y3.0362 Z-0.2333 I-0.0125 J0.0
G2 Y3.0578 Z-0.2667 I0.0062 J0.0108
G2 X7.1193 Y3.047 Z-0.3 I0.0063 J-0.0108
G2 X7.1005 Y3.0362 Z-0.3333 I-0.0125 J0.0
G2 Y3.0578 Z-0.3667 I0.0063 J0.0108
G2 X7.1193 Y3.047 Z-0.4 I0.0062 J-0.0108
G2 X7.1005 Y3.0362 Z-0.4333 I-0.0125 J0.0
G2 Y3.0578 Z-0.4667 I0.0063 J0.0108
G2 X7.1193 Y3.047 Z-0.5 I0.0062 J-0.0108
G2 X7.1005 Y3.0362 Z-0.5333 I-0.0125 J0.0
G2 Y3.0578 Z-0.5667 I0.0063 J0.0108
G2 X7.1193 Y3.047 Z-0.6 I0.0062 J-0.0108
G2 X7.1005 Y3.0362 Z-0.6333 I-0.0125 J0.0
G2 Y3.0578 Z-0.6667 I0.0062 J0.0108
G2 X7.1193 Y3.047 Z-0.7 I0.0063 J-0.0108
G2 X7.1005 Y3.0362 Z-0.7333 I-0.0125 J0.0
G2 Y3.0578 Z-0.7667 I0.0062 J0.0108
G2 X7.1193 Y3.047 Z-0.8 I0.0063 J-0.0108
G2 X7.1005 Y3.0362 Z-0.8333 I-0.0125 J0.0
G2 Y3.0578 Z-0.8667 I0.0062 J0.0108
G2 X7.1193 Y3.047 Z-0.9 I0.0063 J-0.0108
G2 X7.1005 Y3.0362 Z-0.9333 I-0.0125 J0.0
G2 Y3.0578 Z-0.9667 I0.0062 J0.0108
G2 X7.1193 Y3.047 Z-1.0 I0.0063 J-0.0108
G2 X7.1005 Y3.0362 Z-1.0333 I-0.0125 J0.0
G2 Y3.0578 Z-1.0667 I0.0062 J0.0108
G2 X7.1193 Y3.047 Z-1.1 I0.0063 J-0.0108
G2 X7.1005 Y3.0362 Z-1.1333 I-0.0125 J0.0
G2 Y3.0578 Z-1.1667 I0.0062 J0.0108
G2 X7.1193 Y3.047 Z-1.2 I0.0063 J-0.0108
G2 X7.1005 Y3.0362 Z-1.2333 I-0.0125 J0.0
G2 Y3.0578 Z-1.2667 I0.0062 J0.0108
G2 X7.1193 Y3.047 Z-1.3 I0.0063 J-0.0108
G2 X7.1005 Y3.0362 Z-1.3333 I-0.0125 J0.0
G2 Y3.0578 Z-1.3667 I0.0062 J0.0108
G2 X7.1193 Y3.047 Z-1.4 I0.0063 J-0.0108
G2 X7.1005 Y3.0362 Z-1.4333 I-0.0125 J0.0
G2 Y3.0578 Z-1.4667 I0.0062 J0.0108
G2 X7.1193 Y3.047 Z-1.5 I0.0063 J-0.0108
G2 X7.1005 Y3.0362 Z-1.5333 I-0.0125 J0.0
G2 Y3.0578 Z-1.5667 I0.0062 J0.0108
G2 X7.1193 Y3.047 Z-1.6 I0.0063 J-0.0108
G2 X7.1005 Y3.0362 Z-1.6333 I-0.0125 J0.0
G2 Y3.0578 Z-1.6667 I0.0062 J0.0108
G2 X7.1193 Y3.047 Z-1.7 I0.0063 J-0.0108
G2 X7.1005 Y3.0362 Z-1.7333 I-0.0125 J0.0
G2 Y3.0578 Z-1.7667 I0.0062 J0.0108
G2 X7.1193 Y3.047 Z-1.8 I0.0063 J-0.0108
G2 X7.1005 Y3.0362 Z-1.8333 I-0.0125 J0.0
G2 Y3.0578 Z-1.8667 I0.0062 J0.0108
G2 X7.1193 Y3.047 Z-1.9 I0.0063 J-0.0108
G2 X7.1005 Y3.0362 Z-1.9333 I-0.0125 J0.0
G2 Y3.0578 Z-1.9667 I0.0062 J0.0108
G2 X7.1193 Y3.047 Z-2.0 I0.0063 J-0.0108
G2 X7.1005 Y3.0362 Z-2.0333 I-0.0125 J0.0
G2 Y3.0578 Z-2.0667 I0.0062 J0.0108
G2 X7.1193 Y3.047 Z-2.1 I0.0063 J-0.0108
G2 X7.1005 Y3.0362 Z-2.1333 I-0.0125 J0.0
G2 Y3.0578 Z-2.1667 I0.0062 J0.0108
G2 X7.1193 Y3.047 Z-2.2 I0.0063 J-0.0108
G2 X7.1005 Y3.0362 Z-2.2333 I-0.0125 J0.0
G2 Y3.0578 Z-2.2667 I0.0062 J0.0108
G2 X7.1193 Y3.047 Z-2.3 I0.0063 J-0.0108
G2 X7.1005 Y3.0362 Z-2.3333 I-0.0125 J0.0
G2 Y3.0578 Z-2.3667 I0.0063 J0.0108
G2 X7.1193 Y3.047 Z-2.4 I0.0062 J-0.0108
G2 X7.1005 Y3.0362 Z-2.4333 I-0.0125 J0.0
G2 Y3.0578 Z-2.4667 I0.0063 J0.0108
G2 X7.1193 Y3.047 Z-2.5 I0.0062 J-0.0108
G2 X7.1005 Y3.0362 Z-2.5333 I-0.0125 J0.0
G2 Y3.0578 Z-2.5667 I0.0063 J0.0108
G2 X7.1193 Y3.047 Z-2.6 I0.0062 J-0.0108
G2 X7.1005 Y3.0362 Z-2.6333 I-0.0125 J0.0
G2 Y3.0578 Z-2.6667 I0.0063 J0.0108
G2 X7.1193 Y3.047 Z-2.7 I0.0062 J-0.0108
G2 X7.1005 Y3.0362 Z-2.7333 I-0.0125 J0.0
G2 Y3.0578 Z-2.7667 I0.0063 J0.0108
G2 X7.1193 Y3.047 Z-2.8 I0.0062 J-0.0108
G2 X7.1005 Y3.0362 Z-2.8333 I-0.0125 J0.0
G2 Y3.0578 Z-2.8667 I0.0063 J0.0108
G2 X7.1193 Y3.047 Z-2.9 I0.0062 J-0.0108
G2 X7.1005 Y3.0362 Z-2.9333 I-0.0125 J0.0
G2 Y3.0578 Z-2.9667 I0.0063 J0.0108
G2 X7.1193 Y3.047 Z-3.0 I0.0062 J-0.0108
G2 X7.1005 Y3.0362 Z-3.0333 I-0.0125 J0.0
G2 Y3.0578 Z-3.0667 I0.0063 J0.0108
G2 X7.1193 Y3.047 Z-3.1 I0.0062 J-0.0108
G2 X7.1005 Y3.0362 Z-3.1333 I-0.0125 J0.0
G2 Y3.0578 Z-3.1667 I0.0063 J0.0108
G2 X7.1193 Y3.047 Z-3.2 I0.0062 J-0.0108
G2 X7.1005 Y3.0362 I-0.0125 J0.0
G2 Y3.0578 I0.0063 J0.0108
G2 X7.1193 Y3.047 I0.0062 J-0.0108
G0 Z3.0
G0 X6.5225 Y17.8208
G1 F1000.0 Z0.0
G2 F2000.0 X6.5038 Y17.8099 Z-0.0333 I-0.0125 J0.0
G2 Y17.8316 Z-0.0667 I0.0062 J0.0108
G2 X6.5225 Y17.8208 Z-0.1 I0.0063 J-0.0108
G2 X6.5038 Y17.8099 Z-0.1333 I-0.0125 J0.0
G2 Y17.8316 Z-0.1667 I0.0062 J0.0108
G2 X6.5225 Y17.8208 Z-0.2 I0.0063 J-0.0108
G2 X6.5038 Y17.8099 Z-0.2333 I-0.0125 J0.0
G2 Y17.8316 Z-0.2667 I0.0062 J0.0108
G2 X6.5225 Y17.8208 Z-0.3 I0.0063 J-0.0108
G2 X6.5038 Y17.8099 Z-0.3333 I-0.0125 J0.0
G2 Y17.8316 Z-0.3667 I0.0062 J0.0108
G2 X6.5225 Y17.8208 Z-0.4 I0.0063 J-0.0108
G2 X6.5038 Y17.8099 Z-0.4333 I-0.0125 J0.0
G2 Y17.8316 Z-0.4667 I0.0062 J0.0108
G2 X6.5225 Y17.8208 Z-0.5 I0.0063 J-0.0108
G2 X6.5038 Y17.8099 Z-0.5333 I-0.0125 J0.0
G2 Y17.8316 Z-0.5667 I0.0062 J0.0108
G2 X6.5225 Y17.8208 Z-0.6 I0.0063 J-0.0108
G2 X6.5038 Y17.8099 Z-0.6333 I-0.0125 J0.0
G2 Y17.8316 Z-0.6667 I0.0062 J0.0108
G2 X6.5225 Y17.8208 Z-0.7 I0.0063 J-0.0108
G2 X6.5038 Y17.8099 Z-0.7333 I-0.0125 J0.0
G2 Y17.8316 Z-0.7667 I0.0062 J0.0108
G2 X6.5225 Y17.8208 Z-0.8 I0.0063 J-0.0108
G2 X6.5038 Y17.8099 Z-0.8333 I-0.0125 J0.0
G2 Y17.8316 Z-0.8667 I0.0062 J0.0108
G2 X6.5225 Y17.8208 Z-0.9 I0.0063 J-0.0108
G2 X6.5038 Y17.8099 Z-0.9333 I-0.0125 J0.0
G2 Y17.8316 Z-0.9667 I0.0062 J0.0108
G2 X6.5225 Y17.8208 Z-1.0 I0.0063 J-0.0108
G2 X6.5038 Y17.8099 Z-1.0333 I-0.0125 J0.0
G2 Y17.8316 Z-1.0667 I0.0062 J0.0108
G2 X6.5225 Y17.8208 Z-1.1 I0.0063 J-0.0108
G2 X6.5038 Y17.8099 Z-1.1333 I-0.0125 J0.0
G2 Y17.8316 Z-1.1667 I0.0062 J0.0108
G2 X6.5225 Y17.8208 Z-1.2 I0.0063 J-0.0108
G2 X6.5038 Y17.8099 Z-1.2333 I-0.0125 J0.0
G2 Y17.8316 Z-1.2667 I0.0062 J0.0108
G2 X6.5225 Y17.8208 Z-1.3 I0.0063 J-0.0108
G2 X6.5038 Y17.8099 Z-1.3333 I-0.0125 J0.0
G2 Y17.8316 Z-1.3667 I0.0062 J0.0108
G2 X6.5225 Y17.8208 Z-1.4 I0.0063 J-0.0108
G2 X6.5038 Y17.8099 Z-1.4333 I-0.0125 J0.0
G2 Y17.8316 Z-1.4667 I0.0062 J0.0108
G2 X6.5225 Y17.8208 Z-1.5 I0.0063 J-0.0108
G2 X6.5038 Y17.8099 Z-1.5333 I-0.0125 J0.0
G2 Y17.8316 Z-1.5667 I0.0062 J0.0108
G2 X6.5225 Y17.8208 Z-1.6 I0.0063 J-0.0108
G2 X6.5038 Y17.8099 Z-1.6333 I-0.0125 J0.0
G2 Y17.8316 Z-1.6667 I0.0062 J0.0108
G2 X6.5225 Y17.8208 Z-1.7 I0.0063 J-0.0108
G2 X6.5038 Y17.8099 Z-1.7333 I-0.0125 J0.0
G2 Y17.8316 Z-1.7667 I0.0062 J0.0108
G2 X6.5225 Y17.8208 Z-1.8 I0.0063 J-0.0108
G2 X6.5038 Y17.8099 Z-1.8333 I-0.0125 J0.0
G2 Y17.8316 Z-1.8667 I0.0062 J0.0108
G2 X6.5225 Y17.8208 Z-1.9 I0.0063 J-0.0108
G2 X6.5038 Y17.8099 Z-1.9333 I-0.0125 J0.0
G2 Y17.8316 Z-1.9667 I0.0062 J0.0108
G2 X6.5225 Y17.8208 Z-2.0 I0.0063 J-0.0108
G2 X6.5038 Y17.8099 Z-2.0333 I-0.0125 J0.0
G2 Y17.8316 Z-2.0667 I0.0062 J0.0108
G2 X6.5225 Y17.8208 Z-2.1 I0.0063 J-0.0108
G2 X6.5038 Y17.8099 Z-2.1333 I-0.0125 J0.0
G2 Y17.8316 Z-2.1667 I0.0062 J0.0108
G2 X6.5225 Y17.8208 Z-2.2 I0.0063 J-0.0108
G2 X6.5038 Y17.8099 Z-2.2333 I-0.0125 J0.0
G2 Y17.8316 Z-2.2667 I0.0062 J0.0108
G2 X6.5225 Y17.8208 Z-2.3 I0.0063 J-0.0108
G2 X6.5038 Y17.8099 Z-2.3333 I-0.0125 J0.0
G2 Y17.8316 Z-2.3667 I0.0062 J0.0108
G2 X6.5225 Y17.8208 Z-2.4 I0.0063 J-0.0108
G2 X6.5038 Y17.8099 Z-2.4333 I-0.0125 J0.0
G2 Y17.8316 Z-2.4667 I0.0062 J0.0108
G2 X6.5225 Y17.8208 Z-2.5 I0.0063 J-0.0108
G2 X6.5038 Y17.8099 Z-2.5333 I-0.0125 J0.0
G2 Y17.8316 Z-2.5667 I0.0062 J0.0108
G2 X6.5225 Y17.8208 Z-2.6 I0.0063 J-0.0108
G2 X6.5038 Y17.8099 Z-2.6333 I-0.0125 J0.0
G2 Y17.8316 Z-2.6667 I0.0063 J0.0108
G2 X6.5225 Y17.8208 Z-2.7 I0.0062 J-0.0108
G2 X6.5038 Y17.8099 Z-2.7333 I-0.0125 J0.0
G2 Y17.8316 Z-2.7667 I0.0063 J0.0108
G2 X6.5225 Y17.8208 Z-2.8 I0.0062 J-0.0108
G2 X6.5038 Y17.8099 Z-2.8333 I-0.0125 J0.0
G2 Y17.8316 Z-2.8667 I0.0063 J0.0108
G2 X6.5225 Y17.8208 Z-2.9 I0.0062 J-0.0108
G2 X6.5038 Y17.8099 Z-2.9333 I-0.0125 J0.0
G2 Y17.8316 Z-2.9667 I0.0063 J0.0108
G2 X6.5225 Y17.8208 Z-3.0 I0.0062 J-0.0108
G2 X6.5038 Y17.8099 Z-3.0333 I-0.0125 J0.0
G2 Y17.8316 Z-3.0667 I0.0063 J0.0108
G2 X6.5225 Y17.8208 Z-3.1 I0.0062 J-0.0108
G2 X6.5038 Y17.8099 Z-3.1333 I-0.0125 J0.0
G2 Y17.8316 Z-3.1667 I0.0063 J0.0108
G2 X6.5225 Y17.8208 Z-3.2 I0.0062 J-0.0108
G2 X6.5038 Y17.8099 I-0.0125 J0.0
G2 Y17.8316 I0.0063 J0.0108
G2 X6.5225 Y17.8208 I0.0062 J-0.0108
G0 Z3.0
G0 X20.2608 Y28.1794
G1 F1000.0 Z0.0
G2 F2000.0 X20.2421 Y28.1686 Z-0.0333 I-0.0125 J0.0
G2 Y28.1902 Z-0.0667 I0.0062 J0.0108
G2 X20.2608 Y28.1794 Z-0.1 I0.0063 J-0.0108
G2 X20.2421 Y28.1686 Z-0.1333 I-0.0125 J0.0
G2 Y28.1902 Z-0.1667 I0.0062 J0.0108
G2 X20.2608 Y28.1794 Z-0.2 I0.0063 J-0.0108
G2 X20.2421 Y28.1686 Z-0.2333 I-0.0125 J0.0
G2 Y28.1902 Z-0.2667 I0.0062 J0.0108
G2 X20.2608 Y28.1794 Z-0.3 I0.0063 J-0.0108
G2 X20.2421 Y28.1686 Z-0.3333 I-0.0125 J0.0
G2 Y28.1902 Z-0.3667 I0.0062 J0.0108
G2 X20.2608 Y28.1794 Z-0.4 I0.0063 J-0.0108
G2 X20.2421 Y28.1686 Z-0.4333 I-0.0125 J0.0
G2 Y28.1902 Z-0.4667 I0.0062 J0.0108
G2 X20.2608 Y28.1794 Z-0.5 I0.0063 J-0.0108
G2 X20.2421 Y28.1686 Z-0.5333 I-0.0125 J0.0
G2 Y28.1902 Z-0.5667 I0.0062 J0.0108
G2 X20.2608 Y28.1794 Z-0.6 I0.0063 J-0.0108
G2 X20.2421 Y28.1686 Z-0.6333 I-0.0125 J0.0
G2 Y28.1902 Z-0.6667 I0.0062 J0.0108
G2 X20.2608 Y28.1794 Z-0.7 I0.0063 J-0.0108
G2 X20.2421 Y28.1686 Z-0.7333 I-0.0125 J0.0
G2 Y28.1902 Z-0.7667 I0.0062 J0.0108
G2 X20.2608 Y28.1794 Z-0.8 I0.0063 J-0.0108
G2 X20.2421 Y28.1686 Z-0.8333 I-0.0125 J0.0
G2 Y28.1902 Z-0.8667 I0.0062 J0.0108
G2 X20.2608 Y28.1794 Z-0.9 I0.0063 J-0.0108
G2 X20.2421 Y28.1686 Z-0.9333 I-0.0125 J0.0
G2 Y28.1902 Z-0.9667 I0.0062 J0.0108
G2 X20.2608 Y28.1794 Z-1.0 I0.0063 J-0.0108
G2 X20.2421 Y28.1686 Z-1.0333 I-0.0125 J0.0
G2 Y28.1902 Z-1.0667 I0.0062 J0.0108
G2 X20.2608 Y28.1794 Z-1.1 I0.0063 J-0.0108
G2 X20.2421 Y28.1686 Z-1.1333 I-0.0125 J0.0
G2 Y28.1902 Z-1.1667 I0.0062 J0.0108
G2 X20.2608 Y28.1794 Z-1.2 I0.0063 J-0.0108
G2 X20.2421 Y28.1686 Z-1.2333 I-0.0125 J0.0
G2 Y28.1902 Z-1.2667 I0.0062 J0.0108
G2 X20.2608 Y28.1794 Z-1.3 I0.0063 J-0.0108
G2 X20.2421 Y28.1686 Z-1.3333 I-0.0125 J0.0
G2 Y28.1902 Z-1.3667 I0.0062 J0.0108
G2 X20.2608 Y28.1794 Z-1.4 I0.0063 J-0.0108
G2 X20.2421 Y28.1686 Z-1.4333 I-0.0125 J0.0
G2 Y28.1902 Z-1.4667 I0.0062 J0.0108
G2 X20.2608 Y28.1794 Z-1.5 I0.0063 J-0.0108
G2 X20.2421 Y28.1686 Z-1.5333 I-0.0125 J0.0
G2 Y28.1902 Z-1.5667 I0.0062 J0.0108
G2 X20.2608 Y28.1794 Z-1.6 I0.0063 J-0.0108
G2 X20.2421 Y28.1686 Z-1.6333 I-0.0125 J0.0
G2 Y28.1902 Z-1.6667 I0.0062 J0.0108
G2 X20.2608 Y28.1794 Z-1.7 I0.0063 J-0.0108
G2 X20.2421 Y28.1686 Z-1.7333 I-0.0125 J0.0
G2 Y28.1902 Z-1.7667 I0.0062 J0.0108
G2 X20.2608 Y28.1794 Z-1.8 I0.0063 J-0.0108
G2 X20.2421 Y28.1686 Z-1.8333 I-0.0125 J0.0
G2 Y28.1902 Z-1.8667 I0.0062 J0.0108
G2 X20.2608 Y28.1794 Z-1.9 I0.0063 J-0.0108
G2 X20.2421 Y28.1686 Z-1.9333 I-0.0125 J0.0
G2 Y28.1902 Z-1.9667 I0.0062 J0.0108
G2 X20.2608 Y28.1794 Z-2.0 I0.0063 J-0.0108
G2 X20.2421 Y28.1686 Z-2.0333 I-0.0125 J0.0
G2 Y28.1902 Z-2.0667 I0.0062 J0.0108
G2 X20.2608 Y28.1794 Z-2.1 I0.0063 J-0.0108
G2 X20.2421 Y28.1686 Z-2.1333 I-0.0125 J0.0
G2 Y28.1902 Z-2.1667 I0.0062 J0.0108
G2 X20.2608 Y28.1794 Z-2.2 I0.0063 J-0.0108
G2 X20.2421 Y28.1686 Z-2.2333 I-0.0125 J0.0
G2 Y28.1902 Z-2.2667 I0.0062 J0.0108
G2 X20.2608 Y28.1794 Z-2.3 I0.0063 J-0.0108
G2 X20.2421 Y28.1686 Z-2.3333 I-0.0125 J0.0
G2 Y28.1902 Z-2.3667 I0.0062 J0.0108
G2 X20.2608 Y28.1794 Z-2.4 I0.0063 J-0.0108
G2 X20.2421 Y28.1686 Z-2.4333 I-0.0125 J0.0
G2 Y28.1902 Z-2.4667 I0.0063 J0.0108
G2 X20.2608 Y28.1794 Z-2.5 I0.0062 J-0.0108
G2 X20.2421 Y28.1686 Z-2.5333 I-0.0125 J0.0
G2 Y28.1902 Z-2.5667 I0.0063 J0.0108
G2 X20.2608 Y28.1794 Z-2.6 I0.0062 J-0.0108
G2 X20.2421 Y28.1686 Z-2.6333 I-0.0125 J0.0
G2 Y28.1902 Z-2.6667 I0.0063 J0.0108
G2 X20.2608 Y28.1794 Z-2.7 I0.0062 J-0.0108
G2 X20.2421 Y28.1686 Z-2.7333 I-0.0125 J0.0
G2 Y28.1902 Z-2.7667 I0.0063 J0.0108
G2 X20.2608 Y28.1794 Z-2.8 I0.0062 J-0.0108
G2 X20.2421 Y28.1686 Z-2.8333 I-0.0125 J0.0
G2 Y28.1902 Z-2.8667 I0.0063 J0.0108
G2 X20.2608 Y28.1794 Z-2.9 I0.0062 J-0.0108
G2 X20.2421 Y28.1686 Z-2.9333 I-0.0125 J0.0
G2 Y28.1902 Z-2.9667 I0.0063 J0.0108
G2 X20.2608 Y28.1794 Z-3.0 I0.0062 J-0.0108
G2 X20.2421 Y28.1686 Z-3.0333 I-0.0125 J0.0
G2 Y28.1902 Z-3.0667 I0.0063 J0.0108
G2 X20.2608 Y28.1794 Z-3.1 I0.0062 J-0.0108
G2 X20.2421 Y28.1686 Z-3.1333 I-0.0125 J0.0
G2 Y28.1902 Z-3.1667 I0.0063 J0.0108
G2 X20.2608 Y28.1794 Z-3.2 I0.0062 J-0.0108
G2 X20.2421 Y28.1686 I-0.0125 J0.0
G2 Y28.1902 I0.0063 J0.0108
G2 X20.2608 Y28.1794 I0.0062 J-0.0108
G0 Z3.0
G0 X20.2566 Y36.3244
G1 F1000.0 Z0.0
G2 F2000.0 X20.2379 Y36.3136 Z-0.0333 I-0.0125 J0.0
G2 Y36.3352 Z-0.0667 I0.0063 J0.0108
G2 X20.2566 Y36.3244 Z-0.1 I0.0062 J-0.0108
G2 X20.2379 Y36.3136 Z-0.1333 I-0.0125 J0.0
G2 Y36.3352 Z-0.1667 I0.0063 J0.0108
G2 X20.2566 Y36.3244 Z-0.2 I0.0062 J-0.0108
G2 X20.2379 Y36.3136 Z-0.2333 I-0.0125 J0.0
G2 Y36.3352 Z-0.2667 I0.0063 J0.0108
G2 X20.2566 Y36.3244 Z-0.3 I0.0062 J-0.0108
G2 X20.2379 Y36.3136 Z-0.3333 I-0.0125 J0.0
G2 Y36.3352 Z-0.3667 I0.0063 J0.0108
G2 X20.2566 Y36.3244 Z-0.4 I0.0062 J-0.0108
G2 X20.2379 Y36.3136 Z-0.4333 I-0.0125 J0.0
G2 Y36.3352 Z-0.4667 I0.0063 J0.0108
G2 X20.2566 Y36.3244 Z-0.5 I0.0062 J-0.0108
G2 X20.2379 Y36.3136 Z-0.5333 I-0.0125 J0.0
G2 Y36.3352 Z-0.5667 I0.0063 J0.0108
G2 X20.2566 Y36.3244 Z-0.6 I0.0062 J-0.0108
G2 X20.2379 Y36.3136 Z-0.6333 I-0.0125 J0.0
G2 Y36.3352 Z-0.6667 I0.0063 J0.0108
G2 X20.2566 Y36.3244 Z-0.7 I0.0062 J-0.0108
G2 X20.2379 Y36.3136 Z-0.7333 I-0.0125 J0.0
G2 Y36.3352 Z-0.7667 I0.0063 J0.0108
G2 X20.2566 Y36.3244 Z-0.8 I0.0062 J-0.0108
G2 X20.2379 Y36.3136 Z-0.8333 I-0.0125 J0.0
G2 Y36.3352 Z-0.8667 I0.0063 J0.0108
G2 X20.2566 Y36.3244 Z-0.9 I0.0062 J-0.0108
G2 X20.2379 Y36.3136 Z-0.9333 I-0.0125 J0.0
G2 Y36.3352 Z-0.9667 I0.0063 J0.0108
G2 X20.2566 Y36.3244 Z-1.0 I0.0062 J-0.0108
G2 X20.2379 Y36.3136 Z-1.0333 I-0.0125 J0.0
G2 Y36.3352 Z-1.0667 I0.0063 J0.0108
G2 X20.2566 Y36.3244 Z-1.1 I0.0062 J-0.0108
G2 X20.2379 Y36.3136 Z-1.1333 I-0.0125 J0.0
G2 Y36.3352 Z-1.1667 I0.0063 J0.0108
G2 X20.2566 Y36.3244 Z-1.2 I0.0062 J-0.0108
G2 X20.2379 Y36.3136 Z-1.2333 I-0.0125 J0.0
G2 Y36.3352 Z-1.2667 I0.0063 J0.0108
G2 X20.2566 Y36.3244 Z-1.3 I0.0062 J-0.0108
G2 X20.2379 Y36.3136 Z-1.3333 I-0.0125 J0.0
G2 Y36.3352 Z-1.3667 I0.0063 J0.0108
G2 X20.2566 Y36.3244 Z-1.4 I0.0062 J-0.0108
G2 X20.2379 Y36.3136 Z-1.4333 I-0.0125 J0.0
G2 Y36.3352 Z-1.4667 I0.0063 J0.0108
G2 X20.2566 Y36.3244 Z-1.5 I0.0062 J-0.0108
G2 X20.2379 Y36.3136 Z-1.5333 I-0.0125 J0.0
G2 Y36.3352 Z-1.5667 I0.0063 J0.0108
G2 X20.2566 Y36.3244 Z-1.6 I0.0062 J-0.0108
G2 X20.2379 Y36.3136 Z-1.6333 I-0.0125 J0.0
G2 Y36.3352 Z-1.6667 I0.0063 J0.0108
G2 X20.2566 Y36.3244 Z-1.7 I0.0062 J-0.0108
G2 X20.2379 Y36.3136 Z-1.7333 I-0.0125 J0.0
G2 Y36.3352 Z-1.7667 I0.0063 J0.0108
G2 X20.2566 Y36.3244 Z-1.8 I0.0062 J-0.0108
G2 X20.2379 Y36.3136 Z-1.8333 I-0.0125 J0.0
G2 Y36.3352 Z-1.8667 I0.0063 J0.0108
G2 X20.2566 Y36.3244 Z-1.9 I0.0062 J-0.0108
G2 X20.2379 Y36.3136 Z-1.9333 I-0.0125 J0.0
G2 Y36.3352 Z-1.9667 I0.0063 J0.0108
G2 X20.2566 Y36.3244 Z-2.0 I0.0062 J-0.0108
G2 X20.2379 Y36.3136 Z-2.0333 I-0.0125 J0.0
G2 Y36.3352 Z-2.0667 I0.0063 J0.0108
G2 X20.2566 Y36.3244 Z-2.1 I0.0062 J-0.0108
G2 X20.2379 Y36.3136 Z-2.1333 I-0.0125 J0.0
G2 Y36.3352 Z-2.1667 I0.0063 J0.0108
G2 X20.2566 Y36.3244 Z-2.2 I0.0062 J-0.0108
G2 X20.2379 Y36.3136 Z-2.2333 I-0.0125 J0.0
G2 Y36.3352 Z-2.2667 I0.0063 J0.0108
G2 X20.2566 Y36.3244 Z-2.3 I0.0062 J-0.0108
G2 X20.2379 Y36.3136 Z-2.3333 I-0.0125 J0.0
G2 Y36.3352 Z-2.3667 I0.0063 J0.0108
G2 X20.2566 Y36.3244 Z-2.4 I0.0062 J-0.0108
G2 X20.2379 Y36.3136 Z-2.4333 I-0.0125 J0.0
G2 Y36.3352 Z-2.4667 I0.0063 J0.0108
G2 X20.2566 Y36.3244 Z-2.5 I0.0062 J-0.0108
G2 X20.2379 Y36.3136 Z-2.5333 I-0.0125 J0.0
G2 Y36.3352 Z-2.5667 I0.0063 J0.0108
G2 X20.2566 Y36.3244 Z-2.6 I0.0062 J-0.0108
G2 X20.2379 Y36.3136 Z-2.6333 I-0.0125 J0.0
G2 Y36.3352 Z-2.6667 I0.0063 J0.0108
G2 X20.2566 Y36.3244 Z-2.7 I0.0062 J-0.0108
G2 X20.2379 Y36.3136 Z-2.7333 I-0.0125 J0.0
G2 Y36.3352 Z-2.7667 I0.0063 J0.0108
G2 X20.2566 Y36.3244 Z-2.8 I0.0062 J-0.0108
G2 X20.2379 Y36.3136 Z-2.8333 I-0.0125 J0.0
G2 Y36.3352 Z-2.8667 I0.0063 J0.0108
G2 X20.2566 Y36.3244 Z-2.9 I0.0062 J-0.0108
G2 X20.2379 Y36.3136 Z-2.9333 I-0.0125 J0.0
G2 Y36.3352 Z-2.9667 I0.0063 J0.0108
G2 X20.2566 Y36.3244 Z-3.0 I0.0062 J-0.0108
G2 X20.2379 Y36.3136 Z-3.0333 I-0.0125 J0.0
G2 Y36.3352 Z-3.0667 I0.0063 J0.0108
G2 X20.2566 Y36.3244 Z-3.1 I0.0062 J-0.0108
G2 X20.2379 Y36.3136 Z-3.1333 I-0.0125 J0.0
G2 Y36.3352 Z-3.1667 I0.0063 J0.0108
G2 X20.2566 Y36.3244 Z-3.2 I0.0062 J-0.0108
G2 X20.2379 Y36.3136 I-0.0125 J0.0
G2 Y36.3352 I0.0063 J0.0108
G2 X20.2566 Y36.3244 I0.0062 J-0.0108
G0 Z3.0
G0 Y44.6346
G1 F1000.0 Z0.0
G2 F2000.0 X20.2379 Y44.6238 Z-0.0333 I-0.0125 J0.0
G2 Y44.6455 Z-0.0667 I0.0063 J0.0108
G2 X20.2566 Y44.6346 Z-0.1 I0.0062 J-0.0108
G2 X20.2379 Y44.6238 Z-0.1333 I-0.0125 J0.0
G2 Y44.6455 Z-0.1667 I0.0063 J0.0108
G2 X20.2566 Y44.6346 Z-0.2 I0.0062 J-0.0108
G2 X20.2379 Y44.6238 Z-0.2333 I-0.0125 J0.0
G2 Y44.6455 Z-0.2667 I0.0063 J0.0108
G2 X20.2566 Y44.6346 Z-0.3 I0.0062 J-0.0108
G2 X20.2379 Y44.6238 Z-0.3333 I-0.0125 J0.0
G2 Y44.6455 Z-0.3667 I0.0063 J0.0108
G2 X20.2566 Y44.6346 Z-0.4 I0.0062 J-0.0108
G2 X20.2379 Y44.6238 Z-0.4333 I-0.0125 J0.0
G2 Y44.6455 Z-0.4667 I0.0063 J0.0108
G2 X20.2566 Y44.6346 Z-0.5 I0.0062 J-0.0108
G2 X20.2379 Y44.6238 Z-0.5333 I-0.0125 J0.0
G2 Y44.6455 Z-0.5667 I0.0063 J0.0108
G2 X20.2566 Y44.6346 Z-0.6 I0.0062 J-0.0108
G2 X20.2379 Y44.6238 Z-0.6333 I-0.0125 J0.0
G2 Y44.6455 Z-0.6667 I0.0063 J0.0108
G2 X20.2566 Y44.6346 Z-0.7 I0.0062 J-0.0108
G2 X20.2379 Y44.6238 Z-0.7333 I-0.0125 J0.0
G2 Y44.6455 Z-0.7667 I0.0063 J0.0108
G2 X20.2566 Y44.6346 Z-0.8 I0.0062 J-0.0108
G2 X20.2379 Y44.6238 Z-0.8333 I-0.0125 J0.0
G2 Y44.6455 Z-0.8667 I0.0063 J0.0108
G2 X20.2566 Y44.6346 Z-0.9 I0.0062 J-0.0108
G2 X20.2379 Y44.6238 Z-0.9333 I-0.0125 J0.0
G2 Y44.6455 Z-0.9667 I0.0063 J0.0108
G2 X20.2566 Y44.6346 Z-1.0 I0.0062 J-0.0108
G2 X20.2379 Y44.6238 Z-1.0333 I-0.0125 J0.0
G2 Y44.6455 Z-1.0667 I0.0063 J0.0108
G2 X20.2566 Y44.6346 Z-1.1 I0.0062 J-0.0108
G2 X20.2379 Y44.6238 Z-1.1333 I-0.0125 J0.0
G2 Y44.6455 Z-1.1667 I0.0063 J0.0108
G2 X20.2566 Y44.6346 Z-1.2 I0.0062 J-0.0108
G2 X20.2379 Y44.6238 Z-1.2333 I-0.0125 J0.0
G2 Y44.6455 Z-1.2667 I0.0063 J0.0108
G2 X20.2566 Y44.6346 Z-1.3 I0.0062 J-0.0108
G2 X20.2379 Y44.6238 Z-1.3333 I-0.0125 J0.0
G2 Y44.6455 Z-1.3667 I0.0063 J0.0108
G2 X20.2566 Y44.6346 Z-1.4 I0.0062 J-0.0108
G2 X20.2379 Y44.6238 Z-1.4333 I-0.0125 J0.0
G2 Y44.6455 Z-1.4667 I0.0063 J0.0108
G2 X20.2566 Y44.6346 Z-1.5 I0.0062 J-0.0108
G2 X20.2379 Y44.6238 Z-1.5333 I-0.0125 J0.0
G2 Y44.6455 Z-1.5667 I0.0063 J0.0108
G2 X20.2566 Y44.6346 Z-1.6 I0.0062 J-0.0108
G2 X20.2379 Y44.6238 Z-1.6333 I-0.0125 J0.0
G2 Y44.6455 Z-1.6667 I0.0063 J0.0108
G2 X20.2566 Y44.6346 Z-1.7 I0.0062 J-0.0108
G2 X20.2379 Y44.6238 Z-1.7333 I-0.0125 J0.0
G2 Y44.6455 Z-1.7667 I0.0063 J0.0108
G2 X20.2566 Y44.6346 Z-1.8 I0.0062 J-0.0108
G2 X20.2379 Y44.6238 Z-1.8333 I-0.0125 J0.0
G2 Y44.6455 Z-1.8667 I0.0063 J0.0108
G2 X20.2566 Y44.6346 Z-1.9 I0.0062 J-0.0108
G2 X20.2379 Y44.6238 Z-1.9333 I-0.0125 J0.0
G2 Y44.6455 Z-1.9667 I0.0063 J0.0108
G2 X20.2566 Y44.6346 Z-2.0 I0.0062 J-0.0108
G2 X20.2379 Y44.6238 Z-2.0333 I-0.0125 J0.0
G2 Y44.6455 Z-2.0667 I0.0063 J0.0108
G2 X20.2566 Y44.6346 Z-2.1 I0.0062 J-0.0108
G2 X20.2379 Y44.6238 Z-2.1333 I-0.0125 J0.0
G2 Y44.6455 Z-2.1667 I0.0063 J0.0108
G2 X20.2566 Y44.6346 Z-2.2 I0.0062 J-0.0108
G2 X20.2379 Y44.6238 Z-2.2333 I-0.0125 J0.0
G2 Y44.6455 Z-2.2667 I0.0063 J0.0108
G2 X20.2566 Y44.6346 Z-2.3 I0.0062 J-0.0108
G2 X20.2379 Y44.6238 Z-2.3333 I-0.0125 J0.0
G2 Y44.6455 Z-2.3667 I0.0063 J0.0108
G2 X20.2566 Y44.6346 Z-2.4 I0.0062 J-0.0108
G2 X20.2379 Y44.6238 Z-2.4333 I-0.0125 J0.0
G2 Y44.6455 Z-2.4667 I0.0063 J0.0108
G2 X20.2566 Y44.6346 Z-2.5 I0.0062 J-0.0108
G2 X20.2379 Y44.6238 Z-2.5333 I-0.0125 J0.0
G2 Y44.6455 Z-2.5667 I0.0063 J0.0108
G2 X20.2566 Y44.6346 Z-2.6 I0.0062 J-0.0108
G2 X20.2379 Y44.6238 Z-2.6333 I-0.0125 J0.0
G2 Y44.6455 Z-2.6667 I0.0063 J0.0108
G2 X20.2566 Y44.6346 Z-2.7 I0.0062 J-0.0108
G2 X20.2379 Y44.6238 Z-2.7333 I-0.0125 J0.0
G2 Y44.6455 Z-2.7667 I0.0063 J0.0108
G2 X20.2566 Y44.6346 Z-2.8 I0.0062 J-0.0108
G2 X20.2379 Y44.6238 Z-2.8333 I-0.0125 J0.0
G2 Y44.6455 Z-2.8667 I0.0063 J0.0108
G2 X20.2566 Y44.6346 Z-2.9 I0.0062 J-0.0108
G2 X20.2379 Y44.6238 Z-2.9333 I-0.0125 J0.0
G2 Y44.6455 Z-2.9667 I0.0063 J0.0108
G2 X20.2566 Y44.6346 Z-3.0 I0.0062 J-0.0108
G2 X20.2379 Y44.6238 Z-3.0333 I-0.0125 J0.0
G2 Y44.6455 Z-3.0667 I0.0063 J0.0108
G2 X20.2566 Y44.6346 Z-3.1 I0.0062 J-0.0108
G2 X20.2379 Y44.6238 Z-3.1333 I-0.0125 J0.0
G2 Y44.6455 Z-3.1667 I0.0063 J0.0108
G2 X20.2566 Y44.6346 Z-3.2 I0.0062 J-0.0108
G2 X20.2379 Y44.6238 I-0.0125 J0.0
G2 Y44.6455 I0.0063 J0.0108
G2 X20.2566 Y44.6346 I0.0062 J-0.0108
G0 Z3.0
G0 X20.2668 Y52.9413
G1 F1000.0 Z0.0
G2 F2000.0 X20.2481 Y52.9305 Z-0.0333 I-0.0125 J0.0
G2 Y52.9522 Z-0.0667 I0.0063 J0.0108
G2 X20.2668 Y52.9413 Z-0.1 I0.0062 J-0.0108
G2 X20.2481 Y52.9305 Z-0.1333 I-0.0125 J0.0
G2 Y52.9522 Z-0.1667 I0.0063 J0.0108
G2 X20.2668 Y52.9413 Z-0.2 I0.0062 J-0.0108
G2 X20.2481 Y52.9305 Z-0.2333 I-0.0125 J0.0
G2 Y52.9522 Z-0.2667 I0.0063 J0.0108
G2 X20.2668 Y52.9413 Z-0.3 I0.0062 J-0.0108
G2 X20.2481 Y52.9305 Z-0.3333 I-0.0125 J0.0
G2 Y52.9522 Z-0.3667 I0.0063 J0.0108
G2 X20.2668 Y52.9413 Z-0.4 I0.0062 J-0.0108
G2 X20.2481 Y52.9305 Z-0.4333 I-0.0125 J0.0
G2 Y52.9522 Z-0.4667 I0.0063 J0.0108
G2 X20.2668 Y52.9413 Z-0.5 I0.0062 J-0.0108
G2 X20.2481 Y52.9305 Z-0.5333 I-0.0125 J0.0
G2 Y52.9522 Z-0.5667 I0.0063 J0.0108
G2 X20.2668 Y52.9413 Z-0.6 I0.0062 J-0.0108
G2 X20.2481 Y52.9305 Z-0.6333 I-0.0125 J0.0
G2 Y52.9522 Z-0.6667 I0.0063 J0.0108
G2 X20.2668 Y52.9413 Z-0.7 I0.0062 J-0.0108
G2 X20.2481 Y52.9305 Z-0.7333 I-0.0125 J0.0
G2 Y52.9522 Z-0.7667 I0.0063 J0.0108
G2 X20.2668 Y52.9413 Z-0.8 I0.0062 J-0.0108
G2 X20.2481 Y52.9305 Z-0.8333 I-0.0125 J0.0
G2 Y52.9522 Z-0.8667 I0.0063 J0.0108
G2 X20.2668 Y52.9413 Z-0.9 I0.0062 J-0.0108
G2 X20.2481 Y52.9305 Z-0.9333 I-0.0125 J0.0
G2 Y52.9522 Z-0.9667 I0.0063 J0.0108
G2 X20.2668 Y52.9413 Z-1.0 I0.0062 J-0.0108
G2 X20.2481 Y52.9305 Z-1.0333 I-0.0125 J0.0
G2 Y52.9522 Z-1.0667 I0.0063 J0.0108
G2 X20.2668 Y52.9413 Z-1.1 I0.0062 J-0.0108
G2 X20.2481 Y52.9305 Z-1.1333 I-0.0125 J0.0
G2 Y52.9522 Z-1.1667 I0.0063 J0.0108
G2 X20.2668 Y52.9413 Z-1.2 I0.0062 J-0.0108
G2 X20.2481 Y52.9305 Z-1.2333 I-0.0125 J0.0
G2 Y52.9522 Z-1.2667 I0.0063 J0.0108
G2 X20.2668 Y52.9413 Z-1.3 I0.0062 J-0.0108
G2 X20.2481 Y52.9305 Z-1.3333 I-0.0125 J0.0
G2 Y52.9522 Z-1.3667 I0.0063 J0.0108
G2 X20.2668 Y52.9413 Z-1.4 I0.0062 J-0.0108
G2 X20.2481 Y52.9305 Z-1.4333 I-0.0125 J0.0
G2 Y52.9522 Z-1.4667 I0.0063 J0.0108
G2 X20.2668 Y52.9413 Z-1.5 I0.0062 J-0.0108
G2 X20.2481 Y52.9305 Z-1.5333 I-0.0125 J0.0
G2 Y52.9522 Z-1.5667 I0.0063 J0.0108
G2 X20.2668 Y52.9413 Z-1.6 I0.0062 J-0.0108
G2 X20.2481 Y52.9305 Z-1.6333 I-0.0125 J0.0
G2 Y52.9522 Z-1.6667 I0.0063 J0.0108
G2 X20.2668 Y52.9413 Z-1.7 I0.0062 J-0.0108
G2 X20.2481 Y52.9305 Z-1.7333 I-0.0125 J0.0
G2 Y52.9522 Z-1.7667 I0.0063 J0.0108
G2 X20.2668 Y52.9413 Z-1.8 I0.0062 J-0.0108
G2 X20.2481 Y52.9305 Z-1.8333 I-0.0125 J0.0
G2 Y52.9522 Z-1.8667 I0.0063 J0.0108
G2 X20.2668 Y52.9413 Z-1.9 I0.0062 J-0.0108
G2 X20.2481 Y52.9305 Z-1.9333 I-0.0125 J0.0
G2 Y52.9522 Z-1.9667 I0.0063 J0.0108
G2 X20.2668 Y52.9413 Z-2.0 I0.0062 J-0.0108
G2 X20.2481 Y52.9305 Z-2.0333 I-0.0125 J0.0
G2 Y52.9522 Z-2.0667 I0.0063 J0.0108
G2 X20.2668 Y52.9413 Z-2.1 I0.0062 J-0.0108
G2 X20.2481 Y52.9305 Z-2.1333 I-0.0125 J0.0
G2 Y52.9522 Z-2.1667 I0.0063 J0.0108
G2 X20.2668 Y52.9413 Z-2.2 I0.0062 J-0.0108
G2 X20.2481 Y52.9305 Z-2.2333 I-0.0125 J0.0
G2 Y52.9522 Z-2.2667 I0.0063 J0.0108
G2 X20.2668 Y52.9413 Z-2.3 I0.0062 J-0.0108
G2 X20.2481 Y52.9305 Z-2.3333 I-0.0125 J0.0
G2 Y52.9522 Z-2.3667 I0.0063 J0.0108
G2 X20.2668 Y52.9413 Z-2.4 I0.0062 J-0.0108
G2 X20.2481 Y52.9305 Z-2.4333 I-0.0125 J0.0
G2 Y52.9522 Z-2.4667 I0.0063 J0.0108
G2 X20.2668 Y52.9413 Z-2.5 I0.0062 J-0.0108
G2 X20.2481 Y52.9305 Z-2.5333 I-0.0125 J0.0
G2 Y52.9522 Z-2.5667 I0.0063 J0.0108
G2 X20.2668 Y52.9413 Z-2.6 I0.0062 J-0.0108
G2 X20.2481 Y52.9305 Z-2.6333 I-0.0125 J0.0
G2 Y52.9522 Z-2.6667 I0.0063 J0.0108
G2 X20.2668 Y52.9413 Z-2.7 I0.0062 J-0.0108
G2 X20.2481 Y52.9305 Z-2.7333 I-0.0125 J0.0
G2 Y52.9522 Z-2.7667 I0.0063 J0.0108
G2 X20.2668 Y52.9413 Z-2.8 I0.0062 J-0.0108
G2 X20.2481 Y52.9305 Z-2.8333 I-0.0125 J0.0
G2 Y52.9522 Z-2.8667 I0.0063 J0.0108
G2 X20.2668 Y52.9413 Z-2.9 I0.0062 J-0.0108
G2 X20.2481 Y52.9305 Z-2.9333 I-0.0125 J0.0
G2 Y52.9522 Z-2.9667 I0.0063 J0.0108
G2 X20.2668 Y52.9413 Z-3.0 I0.0062 J-0.0108
G2 X20.2481 Y52.9305 Z-3.0333 I-0.0125 J0.0
G2 Y52.9522 Z-3.0667 I0.0063 J0.0108
G2 X20.2668 Y52.9413 Z-3.1 I0.0062 J-0.0108
G2 X20.2481 Y52.9305 Z-3.1333 I-0.0125 J0.0
G2 Y52.9522 Z-3.1667 I0.0063 J0.0108
G2 X20.2668 Y52.9413 Z-3.2 I0.0062 J-0.0108
G2 X20.2481 Y52.9305 I-0.0125 J0.0
G2 Y52.9522 I0.0063 J0.0108
G2 X20.2668 Y52.9413 I0.0062 J-0.0108
G0 Z3.0
G0 Y61.2011
G1 F1000.0 Z0.0
G2 F2000.0 X20.2481 Y61.1903 Z-0.0333 I-0.0125 J0.0
G2 Y61.2119 Z-0.0667 I0.0063 J0.0108
G2 X20.2668 Y61.2011 Z-0.1 I0.0062 J-0.0108
G2 X20.2481 Y61.1903 Z-0.1333 I-0.0125 J0.0
G2 Y61.2119 Z-0.1667 I0.0063 J0.0108
G2 X20.2668 Y61.2011 Z-0.2 I0.0062 J-0.0108
G2 X20.2481 Y61.1903 Z-0.2333 I-0.0125 J0.0
G2 Y61.2119 Z-0.2667 I0.0063 J0.0108
G2 X20.2668 Y61.2011 Z-0.3 I0.0062 J-0.0108
G2 X20.2481 Y61.1903 Z-0.3333 I-0.0125 J0.0
G2 Y61.2119 Z-0.3667 I0.0063 J0.0108
G2 X20.2668 Y61.2011 Z-0.4 I0.0062 J-0.0108
G2 X20.2481 Y61.1903 Z-0.4333 I-0.0125 J0.0
G2 Y61.2119 Z-0.4667 I0.0063 J0.0108
G2 X20.2668 Y61.2011 Z-0.5 I0.0062 J-0.0108
G2 X20.2481 Y61.1903 Z-0.5333 I-0.0125 J0.0
G2 Y61.2119 Z-0.5667 I0.0063 J0.0108
G2 X20.2668 Y61.2011 Z-0.6 I0.0062 J-0.0108
G2 X20.2481 Y61.1903 Z-0.6333 I-0.0125 J0.0
G2 Y61.2119 Z-0.6667 I0.0063 J0.0108
G2 X20.2668 Y61.2011 Z-0.7 I0.0062 J-0.0108
G2 X20.2481 Y61.1903 Z-0.7333 I-0.0125 J0.0
G2 Y61.2119 Z-0.7667 I0.0063 J0.0108
G2 X20.2668 Y61.2011 Z-0.8 I0.0062 J-0.0108
G2 X20.2481 Y61.1903 Z-0.8333 I-0.0125 J0.0
G2 Y61.2119 Z-0.8667 I0.0063 J0.0108
G2 X20.2668 Y61.2011 Z-0.9 I0.0062 J-0.0108
G2 X20.2481 Y61.1903 Z-0.9333 I-0.0125 J0.0
G2 Y61.2119 Z-0.9667 I0.0063 J0.0108
G2 X20.2668 Y61.2011 Z-1.0 I0.0062 J-0.0108
G2 X20.2481 Y61.1903 Z-1.0333 I-0.0125 J0.0
G2 Y61.2119 Z-1.0667 I0.0063 J0.0108
G2 X20.2668 Y61.2011 Z-1.1 I0.0062 J-0.0108
G2 X20.2481 Y61.1903 Z-1.1333 I-0.0125 J0.0
G2 Y61.2119 Z-1.1667 I0.0063 J0.0108
G2 X20.2668 Y61.2011 Z-1.2 I0.0062 J-0.0108
G2 X20.2481 Y61.1903 Z-1.2333 I-0.0125 J0.0
G2 Y61.2119 Z-1.2667 I0.0063 J0.0108
G2 X20.2668 Y61.2011 Z-1.3 I0.0062 J-0.0108
G2 X20.2481 Y61.1903 Z-1.3333 I-0.0125 J0.0
G2 Y61.2119 Z-1.3667 I0.0063 J0.0108
G2 X20.2668 Y61.2011 Z-1.4 I0.0062 J-0.0108
G2 X20.2481 Y61.1903 Z-1.4333 I-0.0125 J0.0
G2 Y61.2119 Z-1.4667 I0.0063 J0.0108
G2 X20.2668 Y61.2011 Z-1.5 I0.0062 J-0.0108
G2 X20.2481 Y61.1903 Z-1.5333 I-0.0125 J0.0
G2 Y61.2119 Z-1.5667 I0.0063 J0.0108
G2 X20.2668 Y61.2011 Z-1.6 I0.0062 J-0.0108
G2 X20.2481 Y61.1903 Z-1.6333 I-0.0125 J0.0
G2 Y61.2119 Z-1.6667 I0.0063 J0.0108
G2 X20.2668 Y61.2011 Z-1.7 I0.0062 J-0.0108
G2 X20.2481 Y61.1903 Z-1.7333 I-0.0125 J0.0
G2 Y61.2119 Z-1.7667 I0.0063 J0.0108
G2 X20.2668 Y61.2011 Z-1.8 I0.0062 J-0.0108
G2 X20.2481 Y61.1903 Z-1.8333 I-0.0125 J0.0
G2 Y61.2119 Z-1.8667 I0.0063 J0.0108
G2 X20.2668 Y61.2011 Z-1.9 I0.0062 J-0.0108
G2 X20.2481 Y61.1903 Z-1.9333 I-0.0125 J0.0
G2 Y61.2119 Z-1.9667 I0.0063 J0.0108
G2 X20.2668 Y61.2011 Z-2.0 I0.0062 J-0.0108
G2 X20.2481 Y61.1903 Z-2.0333 I-0.0125 J0.0
G2 Y61.2119 Z-2.0667 I0.0063 J0.0108
G2 X20.2668 Y61.2011 Z-2.1 I0.0062 J-0.0108
G2 X20.2481 Y61.1903 Z-2.1333 I-0.0125 J0.0
G2 Y61.2119 Z-2.1667 I0.0063 J0.0108
G2 X20.2668 Y61.2011 Z-2.2 I0.0062 J-0.0108
G2 X20.2481 Y61.1903 Z-2.2333 I-0.0125 J0.0
G2 Y61.2119 Z-2.2667 I0.0063 J0.0108
G2 X20.2668 Y61.2011 Z-2.3 I0.0062 J-0.0108
G2 X20.2481 Y61.1903 Z-2.3333 I-0.0125 J0.0
G2 Y61.2119 Z-2.3667 I0.0063 J0.0108
G2 X20.2668 Y61.2011 Z-2.4 I0.0062 J-0.0108
G2 X20.2481 Y61.1903 Z-2.4333 I-0.0125 J0.0
G2 Y61.2119 Z-2.4667 I0.0063 J0.0108
G2 X20.2668 Y61.2011 Z-2.5 I0.0062 J-0.0108
G2 X20.2481 Y61.1903 Z-2.5333 I-0.0125 J0.0
G2 Y61.2119 Z-2.5667 I0.0063 J0.0108
G2 X20.2668 Y61.2011 Z-2.6 I0.0062 J-0.0108
G2 X20.2481 Y61.1903 Z-2.6333 I-0.0125 J0.0
G2 Y61.2119 Z-2.6667 I0.0063 J0.0108
G2 X20.2668 Y61.2011 Z-2.7 I0.0062 J-0.0108
G2 X20.2481 Y61.1903 Z-2.7333 I-0.0125 J0.0
G2 Y61.2119 Z-2.7667 I0.0063 J0.0108
G2 X20.2668 Y61.2011 Z-2.8 I0.0062 J-0.0108
G2 X20.2481 Y61.1903 Z-2.8333 I-0.0125 J0.0
G2 Y61.2119 Z-2.8667 I0.0063 J0.0108
G2 X20.2668 Y61.2011 Z-2.9 I0.0062 J-0.0108
G2 X20.2481 Y61.1903 Z-2.9333 I-0.0125 J0.0
G2 Y61.2119 Z-2.9667 I0.0063 J0.0108
G2 X20.2668 Y61.2011 Z-3.0 I0.0062 J-0.0108
G2 X20.2481 Y61.1903 Z-3.0333 I-0.0125 J0.0
G2 Y61.2119 Z-3.0667 I0.0063 J0.0108
G2 X20.2668 Y61.2011 Z-3.1 I0.0062 J-0.0108
G2 X20.2481 Y61.1903 Z-3.1333 I-0.0125 J0.0
G2 Y61.2119 Z-3.1667 I0.0063 J0.0108
G2 X20.2668 Y61.2011 Z-3.2 I0.0062 J-0.0108
G2 X20.2481 Y61.1903 I-0.0125 J0.0
G2 Y61.2119 I0.0063 J0.0108
G2 X20.2668 Y61.2011 I0.0062 J-0.0108
G0 Z3.0
G0 Y69.5008
G1 F1000.0 Z0.0
G2 F2000.0 X20.2481 Y69.4899 Z-0.0333 I-0.0125 J0.0
G2 Y69.5116 Z-0.0667 I0.0062 J0.0108
G2 X20.2668 Y69.5008 Z-0.1 I0.0063 J-0.0108
G2 X20.2481 Y69.4899 Z-0.1333 I-0.0125 J0.0
G2 Y69.5116 Z-0.1667 I0.0062 J0.0108
G2 X20.2668 Y69.5008 Z-0.2 I0.0063 J-0.0108
G2 X20.2481 Y69.4899 Z-0.2333 I-0.0125 J0.0
G2 Y69.5116 Z-0.2667 I0.0062 J0.0108
G2 X20.2668 Y69.5008 Z-0.3 I0.0063 J-0.0108
G2 X20.2481 Y69.4899 Z-0.3333 I-0.0125 J0.0
G2 Y69.5116 Z-0.3667 I0.0062 J0.0108
G2 X20.2668 Y69.5008 Z-0.4 I0.0063 J-0.0108
G2 X20.2481 Y69.4899 Z-0.4333 I-0.0125 J0.0
G2 Y69.5116 Z-0.4667 I0.0062 J0.0108
G2 X20.2668 Y69.5008 Z-0.5 I0.0063 J-0.0108
G2 X20.2481 Y69.4899 Z-0.5333 I-0.0125 J0.0
G2 Y69.5116 Z-0.5667 I0.0062 J0.0108
G2 X20.2668 Y69.5008 Z-0.6 I0.0063 J-0.0108
G2 X20.2481 Y69.4899 Z-0.6333 I-0.0125 J0.0
G2 Y69.5116 Z-0.6667 I0.0062 J0.0108
G2 X20.2668 Y69.5008 Z-0.7 I0.0063 J-0.0108
G2 X20.2481 Y69.4899 Z-0.7333 I-0.0125 J0.0
G2 Y69.5116 Z-0.7667 I0.0062 J0.0108
G2 X20.2668 Y69.5008 Z-0.8 I0.0063 J-0.0108
G2 X20.2481 Y69.4899 Z-0.8333 I-0.0125 J0.0
G2 Y69.5116 Z-0.8667 I0.0062 J0.0108
G2 X20.2668 Y69.5008 Z-0.9 I0.0063 J-0.0108
G2 X20.2481 Y69.4899 Z-0.9333 I-0.0125 J0.0
G2 Y69.5116 Z-0.9667 I0.0062 J0.0108
G2 X20.2668 Y69.5008 Z-1.0 I0.0063 J-0.0108
G2 X20.2481 Y69.4899 Z-1.0333 I-0.0125 J0.0
G2 Y69.5116 Z-1.0667 I0.0062 J0.0108
G2 X20.2668 Y69.5008 Z-1.1 I0.0063 J-0.0108
G2 X20.2481 Y69.4899 Z-1.1333 I-0.0125 J0.0
G2 Y69.5116 Z-1.1667 I0.0062 J0.0108
G2 X20.2668 Y69.5008 Z-1.2 I0.0063 J-0.0108
G2 X20.2481 Y69.4899 Z-1.2333 I-0.0125 J0.0
G2 Y69.5116 Z-1.2667 I0.0062 J0.0108
G2 X20.2668 Y69.5008 Z-1.3 I0.0063 J-0.0108
G2 X20.2481 Y69.4899 Z-1.3333 I-0.0125 J0.0
G2 Y69.5116 Z-1.3667 I0.0062 J0.0108
G2 X20.2668 Y69.5008 Z-1.4 I0.0063 J-0.0108
G2 X20.2481 Y69.4899 Z-1.4333 I-0.0125 J0.0
G2 Y69.5116 Z-1.4667 I0.0062 J0.0108
G2 X20.2668 Y69.5008 Z-1.5 I0.0063 J-0.0108
G2 X20.2481 Y69.4899 Z-1.5333 I-0.0125 J0.0
G2 Y69.5116 Z-1.5667 I0.0062 J0.0108
G2 X20.2668 Y69.5008 Z-1.6 I0.0063 J-0.0108
G2 X20.2481 Y69.4899 Z-1.6333 I-0.0125 J0.0
G2 Y69.5116 Z-1.6667 I0.0062 J0.0108
G2 X20.2668 Y69.5008 Z-1.7 I0.0063 J-0.0108
G2 X20.2481 Y69.4899 Z-1.7333 I-0.0125 J0.0
G2 Y69.5116 Z-1.7667 I0.0062 J0.0108
G2 X20.2668 Y69.5008 Z-1.8 I0.0063 J-0.0108
G2 X20.2481 Y69.4899 Z-1.8333 I-0.0125 J0.0
G2 Y69.5116 Z-1.8667 I0.0062 J0.0108
G2 X20.2668 Y69.5008 Z-1.9 I0.0063 J-0.0108
G2 X20.2481 Y69.4899 Z-1.9333 I-0.0125 J0.0
G2 Y69.5116 Z-1.9667 I0.0062 J0.0108
G2 X20.2668 Y69.5008 Z-2.0 I0.0063 J-0.0108
G2 X20.2481 Y69.4899 Z-2.0333 I-0.0125 J0.0
G2 Y69.5116 Z-2.0667 I0.0062 J0.0108
G2 X20.2668 Y69.5008 Z-2.1 I0.0063 J-0.0108
G2 X20.2481 Y69.4899 Z-2.1333 I-0.0125 J0.0
G2 Y69.5116 Z-2.1667 I0.0062 J0.0108
G2 X20.2668 Y69.5008 Z-2.2 I0.0063 J-0.0108
G2 X20.2481 Y69.4899 Z-2.2333 I-0.0125 J0.0
G2 Y69.5116 Z-2.2667 I0.0062 J0.0108
G2 X20.2668 Y69.5008 Z-2.3 I0.0063 J-0.0108
G2 X20.2481 Y69.4899 Z-2.3333 I-0.0125 J0.0
G2 Y69.5116 Z-2.3667 I0.0062 J0.0108
G2 X20.2668 Y69.5008 Z-2.4 I0.0063 J-0.0108
G2 X20.2481 Y69.4899 Z-2.4333 I-0.0125 J0.0
G2 Y69.5116 Z-2.4667 I0.0062 J0.0108
G2 X20.2668 Y69.5008 Z-2.5 I0.0063 J-0.0108
G2 X20.2481 Y69.4899 Z-2.5333 I-0.0125 J0.0
G2 Y69.5116 Z-2.5667 I0.0062 J0.0108
G2 X20.2668 Y69.5008 Z-2.6 I0.0063 J-0.0108
G2 X20.2481 Y69.4899 Z-2.6333 I-0.0125 J0.0
G2 Y69.5116 Z-2.6667 I0.0062 J0.0108
G2 X20.2668 Y69.5008 Z-2.7 I0.0063 J-0.0108
G2 X20.2481 Y69.4899 Z-2.7333 I-0.0125 J0.0
G2 Y69.5116 Z-2.7667 I0.0062 J0.0108
G2 X20.2668 Y69.5008 Z-2.8 I0.0063 J-0.0108
G2 X20.2481 Y69.4899 Z-2.8333 I-0.0125 J0.0
G2 Y69.5116 Z-2.8667 I0.0062 J0.0108
G2 X20.2668 Y69.5008 Z-2.9 I0.0063 J-0.0108
G2 X20.2481 Y69.4899 Z-2.9333 I-0.0125 J0.0
G2 Y69.5116 Z-2.9667 I0.0062 J0.0108
G2 X20.2668 Y69.5008 Z-3.0 I0.0063 J-0.0108
G2 X20.2481 Y69.4899 Z-3.0333 I-0.0125 J0.0
G2 Y69.5116 Z-3.0667 I0.0062 J0.0108
G2 X20.2668 Y69.5008 Z-3.1 I0.0063 J-0.0108
G2 X20.2481 Y69.4899 Z-3.1333 I-0.0125 J0.0
G2 Y69.5116 Z-3.1667 I0.0062 J0.0108
G2 X20.2668 Y69.5008 Z-3.2 I0.0063 J-0.0108
G2 X20.2481 Y69.4899 I-0.0125 J0.0
G2 Y69.5116 I0.0063 J0.0108
G2 X20.2668 Y69.5008 I0.0062 J-0.0108
G0 Z3.0
G0 X20.2595 Y77.6503
G1 F1000.0 Z0.0
G2 F2000.0 X20.2408 Y77.6395 Z-0.0333 I-0.0125 J0.0
G2 Y77.6611 Z-0.0667 I0.0062 J0.0108
G2 X20.2595 Y77.6503 Z-0.1 I0.0063 J-0.0108
G2 X20.2408 Y77.6395 Z-0.1333 I-0.0125 J0.0
G2 Y77.6611 Z-0.1667 I0.0062 J0.0108
G2 X20.2595 Y77.6503 Z-0.2 I0.0063 J-0.0108
G2 X20.2408 Y77.6395 Z-0.2333 I-0.0125 J0.0
G2 Y77.6611 Z-0.2667 I0.0062 J0.0108
G2 X20.2595 Y77.6503 Z-0.3 I0.0063 J-0.0108
G2 X20.2408 Y77.6395 Z-0.3333 I-0.0125 J0.0
G2 Y77.6611 Z-0.3667 I0.0062 J0.0108
G2 X20.2595 Y77.6503 Z-0.4 I0.0063 J-0.0108
G2 X20.2408 Y77.6395 Z-0.4333 I-0.0125 J0.0
G2 Y77.6611 Z-0.4667 I0.0062 J0.0108
G2 X20.2595 Y77.6503 Z-0.5 I0.0063 J-0.0108
G2 X20.2408 Y77.6395 Z-0.5333 I-0.0125 J0.0
G2 Y77.6611 Z-0.5667 I0.0062 J0.0108
G2 X20.2595 Y77.6503 Z-0.6 I0.0063 J-0.0108
G2 X20.2408 Y77.6395 Z-0.6333 I-0.0125 J0.0
G2 Y77.6611 Z-0.6667 I0.0062 J0.0108
G2 X20.2595 Y77.6503 Z-0.7 I0.0063 J-0.0108
G2 X20.2408 Y77.6395 Z-0.7333 I-0.0125 J0.0
G2 Y77.6611 Z-0.7667 I0.0062 J0.0108
G2 X20.2595 Y77.6503 Z-0.8 I0.0063 J-0.0108
G2 X20.2408 Y77.6395 Z-0.8333 I-0.0125 J0.0
G2 Y77.6611 Z-0.8667 I0.0062 J0.0108
G2 X20.2595 Y77.6503 Z-0.9 I0.0063 J-0.0108
G2 X20.2408 Y77.6395 Z-0.9333 I-0.0125 J0.0
G2 Y77.6611 Z-0.9667 I0.0062 J0.0108
G2 X20.2595 Y77.6503 Z-1.0 I0.0063 J-0.0108
G2 X20.2408 Y77.6395 Z-1.0333 I-0.0125 J0.0
G2 Y77.6611 Z-1.0667 I0.0062 J0.0108
G2 X20.2595 Y77.6503 Z-1.1 I0.0063 J-0.0108
G2 X20.2408 Y77.6395 Z-1.1333 I-0.0125 J0.0
G2 Y77.6611 Z-1.1667 I0.0062 J0.0108
G2 X20.2595 Y77.6503 Z-1.2 I0.0063 J-0.0108
G2 X20.2408 Y77.6395 Z-1.2333 I-0.0125 J0.0
G2 Y77.6611 Z-1.2667 I0.0062 J0.0108
G2 X20.2595 Y77.6503 Z-1.3 I0.0063 J-0.0108
G2 X20.2408 Y77.6395 Z-1.3333 I-0.0125 J0.0
G2 Y77.6611 Z-1.3667 I0.0062 J0.0108
G2 X20.2595 Y77.6503 Z-1.4 I0.0063 J-0.0108
G2 X20.2408 Y77.6395 Z-1.4333 I-0.0125 J0.0
G2 Y77.6611 Z-1.4667 I0.0062 J0.0108
G2 X20.2595 Y77.6503 Z-1.5 I0.0063 J-0.0108
G2 X20.2408 Y77.6395 Z-1.5333 I-0.0125 J0.0
G2 Y77.6611 Z-1.5667 I0.0062 J0.0108
G2 X20.2595 Y77.6503 Z-1.6 I0.0063 J-0.0108
G2 X20.2408 Y77.6395 Z-1.6333 I-0.0125 J0.0
G2 Y77.6611 Z-1.6667 I0.0062 J0.0108
G2 X20.2595 Y77.6503 Z-1.7 I0.0063 J-0.0108
G2 X20.2408 Y77.6395 Z-1.7333 I-0.0125 J0.0
G2 Y77.6611 Z-1.7667 I0.0062 J0.0108
G2 X20.2595 Y77.6503 Z-1.8 I0.0063 J-0.0108
G2 X20.2408 Y77.6395 Z-1.8333 I-0.0125 J0.0
G2 Y77.6611 Z-1.8667 I0.0062 J0.0108
G2 X20.2595 Y77.6503 Z-1.9 I0.0063 J-0.0108
G2 X20.2408 Y77.6395 Z-1.9333 I-0.0125 J0.0
G2 Y77.6611 Z-1.9667 I0.0062 J0.0108
G2 X20.2595 Y77.6503 Z-2.0 I0.0063 J-0.0108
G2 X20.2408 Y77.6395 Z-2.0333 I-0.0125 J0.0
G2 Y77.6611 Z-2.0667 I0.0062 J0.0108
G2 X20.2595 Y77.6503 Z-2.1 I0.0063 J-0.0108
G2 X20.2408 Y77.6395 Z-2.1333 I-0.0125 J0.0
G2 Y77.6611 Z-2.1667 I0.0062 J0.0108
G2 X20.2595 Y77.6503 Z-2.2 I0.0063 J-0.0108
G2 X20.2408 Y77.6395 Z-2.2333 I-0.0125 J0.0
G2 Y77.6611 Z-2.2667 I0.0062 J0.0108
G2 X20.2595 Y77.6503 Z-2.3 I0.0063 J-0.0108
G2 X20.2408 Y77.6395 Z-2.3333 I-0.0125 J0.0
G2 Y77.6611 Z-2.3667 I0.0062 J0.0108
G2 X20.2595 Y77.6503 Z-2.4 I0.0063 J-0.0108
G2 X20.2408 Y77.6395 Z-2.4333 I-0.0125 J0.0
G2 Y77.6611 Z-2.4667 I0.0062 J0.0108
G2 X20.2595 Y77.6503 Z-2.5 I0.0063 J-0.0108
G2 X20.2408 Y77.6395 Z-2.5333 I-0.0125 J0.0
G2 Y77.6611 Z-2.5667 I0.0062 J0.0108
G2 X20.2595 Y77.6503 Z-2.6 I0.0063 J-0.0108
G2 X20.2408 Y77.6395 Z-2.6333 I-0.0125 J0.0
G2 Y77.6611 Z-2.6667 I0.0062 J0.0108
G2 X20.2595 Y77.6503 Z-2.7 I0.0063 J-0.0108
G2 X20.2408 Y77.6395 Z-2.7333 I-0.0125 J0.0
G2 Y77.6611 Z-2.7667 I0.0062 J0.0108
G2 X20.2595 Y77.6503 Z-2.8 I0.0063 J-0.0108
G2 X20.2408 Y77.6395 Z-2.8333 I-0.0125 J0.0
G2 Y77.6611 Z-2.8667 I0.0062 J0.0108
G2 X20.2595 Y77.6503 Z-2.9 I0.0063 J-0.0108
G2 X20.2408 Y77.6395 Z-2.9333 I-0.0125 J0.0
G2 Y77.6611 Z-2.9667 I0.0062 J0.0108
G2 X20.2595 Y77.6503 Z-3.0 I0.0063 J-0.0108
G2 X20.2408 Y77.6395 Z-3.0333 I-0.0125 J0.0
G2 Y77.6611 Z-3.0667 I0.0062 J0.0108
G2 X20.2595 Y77.6503 Z-3.1 I0.0063 J-0.0108
G2 X20.2408 Y77.6395 Z-3.1333 I-0.0125 J0.0
G2 Y77.6611 Z-3.1667 I0.0062 J0.0108
G2 X20.2595 Y77.6503 Z-3.2 I0.0063 J-0.0108
G2 X20.2408 Y77.6395 I-0.0125 J0.0
G2 Y77.6611 I0.0063 J0.0108
G2 X20.2595 Y77.6503 I0.0062 J-0.0108
G0 Z3.0
G0 Y85.9354
G1 F1000.0 Z0.0
G2 F2000.0 X20.2408 Y85.9246 Z-0.0333 I-0.0125 J0.0
G2 Y85.9463 Z-0.0667 I0.0062 J0.0108
G2 X20.2595 Y85.9354 Z-0.1 I0.0063 J-0.0108
G2 X20.2408 Y85.9246 Z-0.1333 I-0.0125 J0.0
G2 Y85.9463 Z-0.1667 I0.0062 J0.0108
G2 X20.2595 Y85.9354 Z-0.2 I0.0063 J-0.0108
G2 X20.2408 Y85.9246 Z-0.2333 I-0.0125 J0.0
G2 Y85.9463 Z-0.2667 I0.0062 J0.0108
G2 X20.2595 Y85.9354 Z-0.3 I0.0063 J-0.0108
G2 X20.2408 Y85.9246 Z-0.3333 I-0.0125 J0.0
G2 Y85.9463 Z-0.3667 I0.0062 J0.0108
G2 X20.2595 Y85.9354 Z-0.4 I0.0063 J-0.0108
G2 X20.2408 Y85.9246 Z-0.4333 I-0.0125 J0.0
G2 Y85.9463 Z-0.4667 I0.0062 J0.0108
G2 X20.2595 Y85.9354 Z-0.5 I0.0063 J-0.0108
G2 X20.2408 Y85.9246 Z-0.5333 I-0.0125 J0.0
G2 Y85.9463 Z-0.5667 I0.0062 J0.0108
G2 X20.2595 Y85.9354 Z-0.6 I0.0063 J-0.0108
G2 X20.2408 Y85.9246 Z-0.6333 I-0.0125 J0.0
G2 Y85.9463 Z-0.6667 I0.0062 J0.0108
G2 X20.2595 Y85.9354 Z-0.7 I0.0063 J-0.0108
G2 X20.2408 Y85.9246 Z-0.7333 I-0.0125 J0.0
G2 Y85.9463 Z-0.7667 I0.0062 J0.0108
G2 X20.2595 Y85.9354 Z-0.8 I0.0063 J-0.0108
G2 X20.2408 Y85.9246 Z-0.8333 I-0.0125 J0.0
G2 Y85.9463 Z-0.8667 I0.0062 J0.0108
G2 X20.2595 Y85.9354 Z-0.9 I0.0063 J-0.0108
G2 X20.2408 Y85.9246 Z-0.9333 I-0.0125 J0.0
G2 Y85.9463 Z-0.9667 I0.0062 J0.0108
G2 X20.2595 Y85.9354 Z-1.0 I0.0063 J-0.0108
G2 X20.2408 Y85.9246 Z-1.0333 I-0.0125 J0.0
G2 Y85.9463 Z-1.0667 I0.0062 J0.0108
G2 X20.2595 Y85.9354 Z-1.1 I0.0063 J-0.0108
G2 X20.2408 Y85.9246 Z-1.1333 I-0.0125 J0.0
G2 Y85.9463 Z-1.1667 I0.0062 J0.0108
G2 X20.2595 Y85.9354 Z-1.2 I0.0063 J-0.0108
G2 X20.2408 Y85.9246 Z-1.2333 I-0.0125 J0.0
G2 Y85.9463 Z-1.2667 I0.0062 J0.0108
G2 X20.2595 Y85.9354 Z-1.3 I0.0063 J-0.0108
G2 X20.2408 Y85.9246 Z-1.3333 I-0.0125 J0.0
G2 Y85.9463 Z-1.3667 I0.0062 J0.0108
G2 X20.2595 Y85.9354 Z-1.4 I0.0063 J-0.0108
G2 X20.2408 Y85.9246 Z-1.4333 I-0.0125 J0.0
G2 Y85.9463 Z-1.4667 I0.0062 J0.0108
G2 X20.2595 Y85.9354 Z-1.5 I0.0063 J-0.0108
G2 X20.2408 Y85.9246 Z-1.5333 I-0.0125 J0.0
G2 Y85.9463 Z-1.5667 I0.0062 J0.0108
G2 X20.2595 Y85.9354 Z-1.6 I0.0063 J-0.0108
G2 X20.2408 Y85.9246 Z-1.6333 I-0.0125 J0.0
G2 Y85.9463 Z-1.6667 I0.0062 J0.0108
G2 X20.2595 Y85.9354 Z-1.7 I0.0063 J-0.0108
G2 X20.2408 Y85.9246 Z-1.7333 I-0.0125 J0.0
G2 Y85.9463 Z-1.7667 I0.0062 J0.0108
G2 X20.2595 Y85.9354 Z-1.8 I0.0063 J-0.0108
G2 X20.2408 Y85.9246 Z-1.8333 I-0.0125 J0.0
G2 Y85.9463 Z-1.8667 I0.0062 J0.0108
G2 X20.2595 Y85.9354 Z-1.9 I0.0063 J-0.0108
G2 X20.2408 Y85.9246 Z-1.9333 I-0.0125 J0.0
G2 Y85.9463 Z-1.9667 I0.0062 J0.0108
G2 X20.2595 Y85.9354 Z-2.0 I0.0063 J-0.0108
G2 X20.2408 Y85.9246 Z-2.0333 I-0.0125 J0.0
G2 Y85.9463 Z-2.0667 I0.0062 J0.0108
G2 X20.2595 Y85.9354 Z-2.1 I0.0063 J-0.0108
G2 X20.2408 Y85.9246 Z-2.1333 I-0.0125 J0.0
G2 Y85.9463 Z-2.1667 I0.0062 J0.0108
G2 X20.2595 Y85.9354 Z-2.2 I0.0063 J-0.0108
G2 X20.2408 Y85.9246 Z-2.2333 I-0.0125 J0.0
G2 Y85.9463 Z-2.2667 I0.0062 J0.0108
G2 X20.2595 Y85.9354 Z-2.3 I0.0063 J-0.0108
G2 X20.2408 Y85.9246 Z-2.3333 I-0.0125 J0.0
G2 Y85.9463 Z-2.3667 I0.0062 J0.0108
G2 X20.2595 Y85.9354 Z-2.4 I0.0063 J-0.0108
G2 X20.2408 Y85.9246 Z-2.4333 I-0.0125 J0.0
G2 Y85.9463 Z-2.4667 I0.0062 J0.0108
G2 X20.2595 Y85.9354 Z-2.5 I0.0063 J-0.0108
G2 X20.2408 Y85.9246 Z-2.5333 I-0.0125 J0.0
G2 Y85.9463 Z-2.5667 I0.0062 J0.0108
G2 X20.2595 Y85.9354 Z-2.6 I0.0063 J-0.0108
G2 X20.2408 Y85.9246 Z-2.6333 I-0.0125 J0.0
G2 Y85.9463 Z-2.6667 I0.0062 J0.0108
G2 X20.2595 Y85.9354 Z-2.7 I0.0063 J-0.0108
G2 X20.2408 Y85.9246 Z-2.7333 I-0.0125 J0.0
G2 Y85.9463 Z-2.7667 I0.0062 J0.0108
G2 X20.2595 Y85.9354 Z-2.8 I0.0063 J-0.0108
G2 X20.2408 Y85.9246 Z-2.8333 I-0.0125 J0.0
G2 Y85.9463 Z-2.8667 I0.0062 J0.0108
G2 X20.2595 Y85.9354 Z-2.9 I0.0063 J-0.0108
G2 X20.2408 Y85.9246 Z-2.9333 I-0.0125 J0.0
G2 Y85.9463 Z-2.9667 I0.0062 J0.0108
G2 X20.2595 Y85.9354 Z-3.0 I0.0063 J-0.0108
G2 X20.2408 Y85.9246 Z-3.0333 I-0.0125 J0.0
G2 Y85.9463 Z-3.0667 I0.0062 J0.0108
G2 X20.2595 Y85.9354 Z-3.1 I0.0063 J-0.0108
G2 X20.2408 Y85.9246 Z-3.1333 I-0.0125 J0.0
G2 Y85.9463 Z-3.1667 I0.0062 J0.0108
G2 X20.2595 Y85.9354 Z-3.2 I0.0063 J-0.0108
G2 X20.2408 Y85.9246 I-0.0125 J0.0
G2 Y85.9463 I0.0063 J0.0108
G2 X20.2595 Y85.9354 I0.0062 J-0.0108
G0 Z3.0
G0 X20.2636 Y94.1892
G1 F1000.0 Z0.0
G2 F2000.0 X20.2449 Y94.1784 Z-0.0333 I-0.0125 J0.0
G2 Y94.2001 Z-0.0667 I0.0062 J0.0108
G2 X20.2636 Y94.1892 Z-0.1 I0.0063 J-0.0108
G2 X20.2449 Y94.1784 Z-0.1333 I-0.0125 J0.0
G2 Y94.2001 Z-0.1667 I0.0062 J0.0108
G2 X20.2636 Y94.1892 Z-0.2 I0.0063 J-0.0108
G2 X20.2449 Y94.1784 Z-0.2333 I-0.0125 J0.0
G2 Y94.2001 Z-0.2667 I0.0062 J0.0108
G2 X20.2636 Y94.1892 Z-0.3 I0.0063 J-0.0108
G2 X20.2449 Y94.1784 Z-0.3333 I-0.0125 J0.0
G2 Y94.2001 Z-0.3667 I0.0062 J0.0108
G2 X20.2636 Y94.1892 Z-0.4 I0.0063 J-0.0108
G2 X20.2449 Y94.1784 Z-0.4333 I-0.0125 J0.0
G2 Y94.2001 Z-0.4667 I0.0062 J0.0108
G2 X20.2636 Y94.1892 Z-0.5 I0.0063 J-0.0108
G2 X20.2449 Y94.1784 Z-0.5333 I-0.0125 J0.0
G2 Y94.2001 Z-0.5667 I0.0062 J0.0108
G2 X20.2636 Y94.1892 Z-0.6 I0.0063 J-0.0108
G2 X20.2449 Y94.1784 Z-0.6333 I-0.0125 J0.0
G2 Y94.2001 Z-0.6667 I0.0062 J0.0108
G2 X20.2636 Y94.1892 Z-0.7 I0.0063 J-0.0108
G2 X20.2449 Y94.1784 Z-0.7333 I-0.0125 J0.0
G2 Y94.2001 Z-0.7667 I0.0062 J0.0108
G2 X20.2636 Y94.1892 Z-0.8 I0.0063 J-0.0108
G2 X20.2449 Y94.1784 Z-0.8333 I-0.0125 J0.0
G2 Y94.2001 Z-0.8667 I0.0062 J0.0108
G2 X20.2636 Y94.1892 Z-0.9 I0.0063 J-0.0108
G2 X20.2449 Y94.1784 Z-0.9333 I-0.0125 J0.0
G2 Y94.2001 Z-0.9667 I0.0062 J0.0108
G2 X20.2636 Y94.1892 Z-1.0 I0.0063 J-0.0108
G2 X20.2449 Y94.1784 Z-1.0333 I-0.0125 J0.0
G2 Y94.2001 Z-1.0667 I0.0062 J0.0108
G2 X20.2636 Y94.1892 Z-1.1 I0.0063 J-0.0108
G2 X20.2449 Y94.1784 Z-1.1333 I-0.0125 J0.0
G2 Y94.2001 Z-1.1667 I0.0062 J0.0108
G2 X20.2636 Y94.1892 Z-1.2 I0.0063 J-0.0108
G2 X20.2449 Y94.1784 Z-1.2333 I-0.0125 J0.0
G2 Y94.2001 Z-1.2667 I0.0062 J0.0108
G2 X20.2636 Y94.1892 Z-1.3 I0.0063 J-0.0108
G2 X20.2449 Y94.1784 Z-1.3333 I-0.0125 J0.0
G2 Y94.2001 Z-1.3667 I0.0062 J0.0108
G2 X20.2636 Y94.1892 Z-1.4 I0.0063 J-0.0108
G2 X20.2449 Y94.1784 Z-1.4333 I-0.0125 J0.0
G2 Y94.2001 Z-1.4667 I0.0062 J0.0108
G2 X20.2636 Y94.1892 Z-1.5 I0.0063 J-0.0108
G2 X20.2449 Y94.1784 Z-1.5333 I-0.0125 J0.0
G2 Y94.2001 Z-1.5667 I0.0062 J0.0108
G2 X20.2636 Y94.1892 Z-1.6 I0.0063 J-0.0108
G2 X20.2449 Y94.1784 Z-1.6333 I-0.0125 J0.0
G2 Y94.2001 Z-1.6667 I0.0062 J0.0108
G2 X20.2636 Y94.1892 Z-1.7 I0.0063 J-0.0108
G2 X20.2449 Y94.1784 Z-1.7333 I-0.0125 J0.0
G2 Y94.2001 Z-1.7667 I0.0062 J0.0108
G2 X20.2636 Y94.1892 Z-1.8 I0.0063 J-0.0108
G2 X20.2449 Y94.1784 Z-1.8333 I-0.0125 J0.0
G2 Y94.2001 Z-1.8667 I0.0062 J0.0108
G2 X20.2636 Y94.1892 Z-1.9 I0.0063 J-0.0108
G2 X20.2449 Y94.1784 Z-1.9333 I-0.0125 J0.0
G2 Y94.2001 Z-1.9667 I0.0062 J0.0108
G2 X20.2636 Y94.1892 Z-2.0 I0.0063 J-0.0108
G2 X20.2449 Y94.1784 Z-2.0333 I-0.0125 J0.0
G2 Y94.2001 Z-2.0667 I0.0062 J0.0108
G2 X20.2636 Y94.1892 Z-2.1 I0.0063 J-0.0108
G2 X20.2449 Y94.1784 Z-2.1333 I-0.0125 J0.0
G2 Y94.2001 Z-2.1667 I0.0062 J0.0108
G2 X20.2636 Y94.1892 Z-2.2 I0.0063 J-0.0108
G2 X20.2449 Y94.1784 Z-2.2333 I-0.0125 J0.0
G2 Y94.2001 Z-2.2667 I0.0062 J0.0108
G2 X20.2636 Y94.1892 Z-2.3 I0.0063 J-0.0108
G2 X20.2449 Y94.1784 Z-2.3333 I-0.0125 J0.0
G2 Y94.2001 Z-2.3667 I0.0062 J0.0108
G2 X20.2636 Y94.1892 Z-2.4 I0.0063 J-0.0108
G2 X20.2449 Y94.1784 Z-2.4333 I-0.0125 J0.0
G2 Y94.2001 Z-2.4667 I0.0062 J0.0108
G2 X20.2636 Y94.1892 Z-2.5 I0.0063 J-0.0108
G2 X20.2449 Y94.1784 Z-2.5333 I-0.0125 J0.0
G2 Y94.2001 Z-2.5667 I0.0062 J0.0108
G2 X20.2636 Y94.1892 Z-2.6 I0.0063 J-0.0108
G2 X20.2449 Y94.1784 Z-2.6333 I-0.0125 J0.0
G2 Y94.2001 Z-2.6667 I0.0062 J0.0108
G2 X20.2636 Y94.1892 Z-2.7 I0.0063 J-0.0108
G2 X20.2449 Y94.1784 Z-2.7333 I-0.0125 J0.0
G2 Y94.2001 Z-2.7667 I0.0062 J0.0108
G2 X20.2636 Y94.1892 Z-2.8 I0.0063 J-0.0108
G2 X20.2449 Y94.1784 Z-2.8333 I-0.0125 J0.0
G2 Y94.2001 Z-2.8667 I0.0062 J0.0108
G2 X20.2636 Y94.1892 Z-2.9 I0.0063 J-0.0108
G2 X20.2449 Y94.1784 Z-2.9333 I-0.0125 J0.0
G2 Y94.2001 Z-2.9667 I0.0062 J0.0108
G2 X20.2636 Y94.1892 Z-3.0 I0.0063 J-0.0108
G2 X20.2449 Y94.1784 Z-3.0333 I-0.0125 J0.0
G2 Y94.2001 Z-3.0667 I0.0062 J0.0108
G2 X20.2636 Y94.1892 Z-3.1 I0.0063 J-0.0108
G2 X20.2449 Y94.1784 Z-3.1333 I-0.0125 J0.0
G2 Y94.2001 Z-3.1667 I0.0062 J0.0108
G2 X20.2636 Y94.1892 Z-3.2 I0.0063 J-0.0108
G2 X20.2449 Y94.1784 I-0.0125 J0.0
G2 Y94.2001 I0.0063 J0.0108
G2 X20.2636 Y94.1892 I0.0062 J-0.0108
G0 Z3.0
G0 Y102.5681
G1 F1000.0 Z0.0
G2 F2000.0 X20.2449 Y102.5573 Z-0.0333 I-0.0125 J0.0
G2 Y102.5789 Z-0.0667 I0.0062 J0.0108
G2 X20.2636 Y102.5681 Z-0.1 I0.0063 J-0.0108
G2 X20.2449 Y102.5573 Z-0.1333 I-0.0125 J0.0
G2 Y102.5789 Z-0.1667 I0.0062 J0.0108
G2 X20.2636 Y102.5681 Z-0.2 I0.0063 J-0.0108
G2 X20.2449 Y102.5573 Z-0.2333 I-0.0125 J0.0
G2 Y102.5789 Z-0.2667 I0.0062 J0.0108
G2 X20.2636 Y102.5681 Z-0.3 I0.0063 J-0.0108
G2 X20.2449 Y102.5573 Z-0.3333 I-0.0125 J0.0
G2 Y102.5789 Z-0.3667 I0.0062 J0.0108
G2 X20.2636 Y102.5681 Z-0.4 I0.0063 J-0.0108
G2 X20.2449 Y102.5573 Z-0.4333 I-0.0125 J0.0
G2 Y102.5789 Z-0.4667 I0.0062 J0.0108
G2 X20.2636 Y102.5681 Z-0.5 I0.0063 J-0.0108
G2 X20.2449 Y102.5573 Z-0.5333 I-0.0125 J0.0
G2 Y102.5789 Z-0.5667 I0.0062 J0.0108
G2 X20.2636 Y102.5681 Z-0.6 I0.0063 J-0.0108
G2 X20.2449 Y102.5573 Z-0.6333 I-0.0125 J0.0
G2 Y102.5789 Z-0.6667 I0.0062 J0.0108
G2 X20.2636 Y102.5681 Z-0.7 I0.0063 J-0.0108
G2 X20.2449 Y102.5573 Z-0.7333 I-0.0125 J0.0
G2 Y102.5789 Z-0.7667 I0.0062 J0.0108
G2 X20.2636 Y102.5681 Z-0.8 I0.0063 J-0.0108
G2 X20.2449 Y102.5573 Z-0.8333 I-0.0125 J0.0
G2 Y102.5789 Z-0.8667 I0.0062 J0.0108
G2 X20.2636 Y102.5681 Z-0.9 I0.0063 J-0.0108
G2 X20.2449 Y102.5573 Z-0.9333 I-0.0125 J0.0
G2 Y102.5789 Z-0.9667 I0.0062 J0.0108
G2 X20.2636 Y102.5681 Z-1.0 I0.0063 J-0.0108
G2 X20.2449 Y102.5573 Z-1.0333 I-0.0125 J0.0
G2 Y102.5789 Z-1.0667 I0.0062 J0.0108
G2 X20.2636 Y102.5681 Z-1.1 I0.0063 J-0.0108
G2 X20.2449 Y102.5573 Z-1.1333 I-0.0125 J0.0
G2 Y102.5789 Z-1.1667 I0.0062 J0.0108
G2 X20.2636 Y102.5681 Z-1.2 I0.0063 J-0.0108
G2 X20.2449 Y102.5573 Z-1.2333 I-0.0125 J0.0
G2 Y102.5789 Z-1.2667 I0.0062 J0.0108
G2 X20.2636 Y102.5681 Z-1.3 I0.0063 J-0.0108
G2 X20.2449 Y102.5573 Z-1.3333 I-0.0125 J0.0
G2 Y102.5789 Z-1.3667 I0.0062 J0.0108
G2 X20.2636 Y102.5681 Z-1.4 I0.0063 J-0.0108
G2 X20.2449 Y102.5573 Z-1.4333 I-0.0125 J0.0
G2 Y102.5789 Z-1.4667 I0.0062 J0.0108
G2 X20.2636 Y102.5681 Z-1.5 I0.0063 J-0.0108
G2 X20.2449 Y102.5573 Z-1.5333 I-0.0125 J0.0
G2 Y102.5789 Z-1.5667 I0.0062 J0.0108
G2 X20.2636 Y102.5681 Z-1.6 I0.0063 J-0.0108
G2 X20.2449 Y102.5573 Z-1.6333 I-0.0125 J0.0
G2 Y102.5789 Z-1.6667 I0.0062 J0.0108
G2 X20.2636 Y102.5681 Z-1.7 I0.0063 J-0.0108
G2 X20.2449 Y102.5573 Z-1.7333 I-0.0125 J0.0
G2 Y102.5789 Z-1.7667 I0.0062 J0.0108
G2 X20.2636 Y102.5681 Z-1.8 I0.0063 J-0.0108
G2 X20.2449 Y102.5573 Z-1.8333 I-0.0125 J0.0
G2 Y102.5789 Z-1.8667 I0.0062 J0.0108
G2 X20.2636 Y102.5681 Z-1.9 I0.0063 J-0.0108
G2 X20.2449 Y102.5573 Z-1.9333 I-0.0125 J0.0
G2 Y102.5789 Z-1.9667 I0.0062 J0.0108
G2 X20.2636 Y102.5681 Z-2.0 I0.0063 J-0.0108
G2 X20.2449 Y102.5573 Z-2.0333 I-0.0125 J0.0
G2 Y102.5789 Z-2.0667 I0.0062 J0.0108
G2 X20.2636 Y102.5681 Z-2.1 I0.0063 J-0.0108
G2 X20.2449 Y102.5573 Z-2.1333 I-0.0125 J0.0
G2 Y102.5789 Z-2.1667 I0.0062 J0.0108
G2 X20.2636 Y102.5681 Z-2.2 I0.0063 J-0.0108
G2 X20.2449 Y102.5573 Z-2.2333 I-0.0125 J0.0
G2 Y102.5789 Z-2.2667 I0.0062 J0.0108
G2 X20.2636 Y102.5681 Z-2.3 I0.0063 J-0.0108
G2 X20.2449 Y102.5573 Z-2.3333 I-0.0125 J0.0
G2 Y102.5789 Z-2.3667 I0.0062 J0.0108
G2 X20.2636 Y102.5681 Z-2.4 I0.0063 J-0.0108
G2 X20.2449 Y102.5573 Z-2.4333 I-0.0125 J0.0
G2 Y102.5789 Z-2.4667 I0.0062 J0.0108
G2 X20.2636 Y102.5681 Z-2.5 I0.0063 J-0.0108
G2 X20.2449 Y102.5573 Z-2.5333 I-0.0125 J0.0
G2 Y102.5789 Z-2.5667 I0.0062 J0.0108
G2 X20.2636 Y102.5681 Z-2.6 I0.0063 J-0.0108
G2 X20.2449 Y102.5573 Z-2.6333 I-0.0125 J0.0
G2 Y102.5789 Z-2.6667 I0.0062 J0.0108
G2 X20.2636 Y102.5681 Z-2.7 I0.0063 J-0.0108
G2 X20.2449 Y102.5573 Z-2.7333 I-0.0125 J0.0
G2 Y102.5789 Z-2.7667 I0.0062 J0.0108
G2 X20.2636 Y102.5681 Z-2.8 I0.0063 J-0.0108
G2 X20.2449 Y102.5573 Z-2.8333 I-0.0125 J0.0
G2 Y102.5789 Z-2.8667 I0.0062 J0.0108
G2 X20.2636 Y102.5681 Z-2.9 I0.0063 J-0.0108
G2 X20.2449 Y102.5573 Z-2.9333 I-0.0125 J0.0
G2 Y102.5789 Z-2.9667 I0.0062 J0.0108
G2 X20.2636 Y102.5681 Z-3.0 I0.0063 J-0.0108
G2 X20.2449 Y102.5573 Z-3.0333 I-0.0125 J0.0
G2 Y102.5789 Z-3.0667 I0.0062 J0.0108
G2 X20.2636 Y102.5681 Z-3.1 I0.0063 J-0.0108
G2 X20.2449 Y102.5573 Z-3.1333 I-0.0125 J0.0
G2 Y102.5789 Z-3.1667 I0.0062 J0.0108
G2 X20.2636 Y102.5681 Z-3.2 I0.0063 J-0.0108
G2 X20.2449 Y102.5573 I-0.0125 J0.0
G2 Y102.5789 I0.0063 J0.0108
G2 X20.2636 Y102.5681 I0.0062 J-0.0108
G0 Z3.0
G0 X33.2598 Y102.5906
G1 F1000.0 Z0.0
G2 F2000.0 X33.2411 Y102.5798 Z-0.0333 I-0.0125 J0.0
G2 Y102.6014 Z-0.0667 I0.0062 J0.0108
G2 X33.2598 Y102.5906 Z-0.1 I0.0063 J-0.0108
G2 X33.2411 Y102.5798 Z-0.1333 I-0.0125 J0.0
G2 Y102.6014 Z-0.1667 I0.0062 J0.0108
G2 X33.2598 Y102.5906 Z-0.2 I0.0063 J-0.0108
G2 X33.2411 Y102.5798 Z-0.2333 I-0.0125 J0.0
G2 Y102.6014 Z-0.2667 I0.0062 J0.0108
G2 X33.2598 Y102.5906 Z-0.3 I0.0063 J-0.0108
G2 X33.2411 Y102.5798 Z-0.3333 I-0.0125 J0.0
G2 Y102.6014 Z-0.3667 I0.0062 J0.0108
G2 X33.2598 Y102.5906 Z-0.4 I0.0063 J-0.0108
G2 X33.2411 Y102.5798 Z-0.4333 I-0.0125 J0.0
G2 Y102.6014 Z-0.4667 I0.0062 J0.0108
G2 X33.2598 Y102.5906 Z-0.5 I0.0063 J-0.0108
G2 X33.2411 Y102.5798 Z-0.5333 I-0.0125 J0.0
G2 Y102.6014 Z-0.5667 I0.0062 J0.0108
G2 X33.2598 Y102.5906 Z-0.6 I0.0063 J-0.0108
G2 X33.2411 Y102.5798 Z-0.6333 I-0.0125 J0.0
G2 Y102.6014 Z-0.6667 I0.0062 J0.0108
G2 X33.2598 Y102.5906 Z-0.7 I0.0063 J-0.0108
G2 X33.2411 Y102.5798 Z-0.7333 I-0.0125 J0.0
G2 Y102.6014 Z-0.7667 I0.0062 J0.0108
G2 X33.2598 Y102.5906 Z-0.8 I0.0063 J-0.0108
G2 X33.2411 Y102.5798 Z-0.8333 I-0.0125 J0.0
G2 Y102.6014 Z-0.8667 I0.0062 J0.0108
G2 X33.2598 Y102.5906 Z-0.9 I0.0063 J-0.0108
G2 X33.2411 Y102.5798 Z-0.9333 I-0.0125 J0.0
G2 Y102.6014 Z-0.9667 I0.0062 J0.0108
G2 X33.2598 Y102.5906 Z-1.0 I0.0063 J-0.0108
G2 X33.2411 Y102.5798 Z-1.0333 I-0.0125 J0.0
G2 Y102.6014 Z-1.0667 I0.0062 J0.0108
G2 X33.2598 Y102.5906 Z-1.1 I0.0063 J-0.0108
G2 X33.2411 Y102.5798 Z-1.1333 I-0.0125 J0.0
G2 Y102.6014 Z-1.1667 I0.0062 J0.0108
G2 X33.2598 Y102.5906 Z-1.2 I0.0063 J-0.0108
G2 X33.2411 Y102.5798 Z-1.2333 I-0.0125 J0.0
G2 Y102.6014 Z-1.2667 I0.0062 J0.0108
G2 X33.2598 Y102.5906 Z-1.3 I0.0063 J-0.0108
G2 X33.2411 Y102.5798 Z-1.3333 I-0.0125 J0.0
G2 Y102.6014 Z-1.3667 I0.0062 J0.0108
G2 X33.2598 Y102.5906 Z-1.4 I0.0063 J-0.0108
G2 X33.2411 Y102.5798 Z-1.4333 I-0.0125 J0.0
G2 Y102.6014 Z-1.4667 I0.0062 J0.0108
G2 X33.2598 Y102.5906 Z-1.5 I0.0063 J-0.0108
G2 X33.2411 Y102.5798 Z-1.5333 I-0.0125 J0.0
G2 Y102.6014 Z-1.5667 I0.0062 J0.0108
G2 X33.2598 Y102.5906 Z-1.6 I0.0063 J-0.0108
G2 X33.2411 Y102.5798 Z-1.6333 I-0.0125 J0.0
G2 Y102.6014 Z-1.6667 I0.0062 J0.0108
G2 X33.2598 Y102.5906 Z-1.7 I0.0063 J-0.0108
G2 X33.2411 Y102.5798 Z-1.7333 I-0.0125 J0.0
G2 Y102.6014 Z-1.7667 I0.0062 J0.0108
G2 X33.2598 Y102.5906 Z-1.8 I0.0063 J-0.0108
G2 X33.2411 Y102.5798 Z-1.8333 I-0.0125 J0.0
G2 Y102.6014 Z-1.8667 I0.0062 J0.0108
G2 X33.2598 Y102.5906 Z-1.9 I0.0063 J-0.0108
G2 X33.2411 Y102.5798 Z-1.9333 I-0.0125 J0.0
G2 Y102.6014 Z-1.9667 I0.0062 J0.0108
G2 X33.2598 Y102.5906 Z-2.0 I0.0063 J-0.0108
G2 X33.2411 Y102.5798 Z-2.0333 I-0.0125 J0.0
G2 Y102.6014 Z-2.0667 I0.0062 J0.0108
G2 X33.2598 Y102.5906 Z-2.1 I0.0063 J-0.0108
G2 X33.2411 Y102.5798 Z-2.1333 I-0.0125 J0.0
G2 Y102.6014 Z-2.1667 I0.0062 J0.0108
G2 X33.2598 Y102.5906 Z-2.2 I0.0063 J-0.0108
G2 X33.2411 Y102.5798 Z-2.2333 I-0.0125 J0.0
G2 Y102.6014 Z-2.2667 I0.0062 J0.0108
G2 X33.2598 Y102.5906 Z-2.3 I0.0063 J-0.0108
G2 X33.2411 Y102.5798 Z-2.3333 I-0.0125 J0.0
G2 Y102.6014 Z-2.3667 I0.0062 J0.0108
G2 X33.2598 Y102.5906 Z-2.4 I0.0063 J-0.0108
G2 X33.2411 Y102.5798 Z-2.4333 I-0.0125 J0.0
G2 Y102.6014 Z-2.4667 I0.0062 J0.0108
G2 X33.2598 Y102.5906 Z-2.5 I0.0063 J-0.0108
G2 X33.2411 Y102.5798 Z-2.5333 I-0.0125 J0.0
G2 Y102.6014 Z-2.5667 I0.0062 J0.0108
G2 X33.2598 Y102.5906 Z-2.6 I0.0063 J-0.0108
G2 X33.2411 Y102.5798 Z-2.6333 I-0.0125 J0.0
G2 Y102.6014 Z-2.6667 I0.0062 J0.0108
G2 X33.2598 Y102.5906 Z-2.7 I0.0063 J-0.0108
G2 X33.2411 Y102.5798 Z-2.7333 I-0.0125 J0.0
G2 Y102.6014 Z-2.7667 I0.0062 J0.0108
G2 X33.2598 Y102.5906 Z-2.8 I0.0063 J-0.0108
G2 X33.2411 Y102.5798 Z-2.8333 I-0.0125 J0.0
G2 Y102.6014 Z-2.8667 I0.0062 J0.0108
G2 X33.2598 Y102.5906 Z-2.9 I0.0063 J-0.0108
G2 X33.2411 Y102.5798 Z-2.9333 I-0.0125 J0.0
G2 Y102.6014 Z-2.9667 I0.0063 J0.0108
G2 X33.2598 Y102.5906 Z-3.0 I0.0063 J-0.0108
G2 X33.2411 Y102.5798 Z-3.0333 I-0.0125 J0.0
G2 Y102.6014 Z-3.0667 I0.0063 J0.0108
G2 X33.2598 Y102.5906 Z-3.1 I0.0063 J-0.0108
G2 X33.2411 Y102.5798 Z-3.1333 I-0.0125 J0.0
G2 Y102.6014 Z-3.1667 I0.0063 J0.0108
G2 X33.2598 Y102.5906 Z-3.2 I0.0063 J-0.0108
G2 X33.2411 Y102.5798 I-0.0125 J0.0
G2 Y102.6014 I0.0063 J0.0108
G2 X33.2598 Y102.5906 I0.0062 J-0.0108
G0 Z3.0
G0 Y94.2118
G1 F1000.0 Z0.0
G2 F2000.0 X33.2411 Y94.2009 Z-0.0333 I-0.0125 J0.0
G2 Y94.2226 Z-0.0667 I0.0062 J0.0108
G2 X33.2598 Y94.2118 Z-0.1 I0.0063 J-0.0108
G2 X33.2411 Y94.2009 Z-0.1333 I-0.0125 J0.0
G2 Y94.2226 Z-0.1667 I0.0062 J0.0108
G2 X33.2598 Y94.2118 Z-0.2 I0.0063 J-0.0108
G2 X33.2411 Y94.2009 Z-0.2333 I-0.0125 J0.0
G2 Y94.2226 Z-0.2667 I0.0062 J0.0108
G2 X33.2598 Y94.2118 Z-0.3 I0.0063 J-0.0108
G2 X33.2411 Y94.2009 Z-0.3333 I-0.0125 J0.0
G2 Y94.2226 Z-0.3667 I0.0062 J0.0108
G2 X33.2598 Y94.2118 Z-0.4 I0.0063 J-0.0108
G2 X33.2411 Y94.2009 Z-0.4333 I-0.0125 J0.0
G2 Y94.2226 Z-0.4667 I0.0062 J0.0108
G2 X33.2598 Y94.2118 Z-0.5 I0.0063 J-0.0108
G2 X33.2411 Y94.2009 Z-0.5333 I-0.0125 J0.0
G2 Y94.2226 Z-0.5667 I0.0062 J0.0108
G2 X33.2598 Y94.2118 Z-0.6 I0.0063 J-0.0108
G2 X33.2411 Y94.2009 Z-0.6333 I-0.0125 J0.0
G2 Y94.2226 Z-0.6667 I0.0062 J0.0108
G2 X33.2598 Y94.2118 Z-0.7 I0.0063 J-0.0108
G2 X33.2411 Y94.2009 Z-0.7333 I-0.0125 J0.0
G2 Y94.2226 Z-0.7667 I0.0062 J0.0108
G2 X33.2598 Y94.2118 Z-0.8 I0.0063 J-0.0108
G2 X33.2411 Y94.2009 Z-0.8333 I-0.0125 J0.0
G2 Y94.2226 Z-0.8667 I0.0062 J0.0108
G2 X33.2598 Y94.2118 Z-0.9 I0.0063 J-0.0108
G2 X33.2411 Y94.2009 Z-0.9333 I-0.0125 J0.0
G2 Y94.2226 Z-0.9667 I0.0062 J0.0108
G2 X33.2598 Y94.2118 Z-1.0 I0.0063 J-0.0108
G2 X33.2411 Y94.2009 Z-1.0333 I-0.0125 J0.0
G2 Y94.2226 Z-1.0667 I0.0062 J0.0108
G2 X33.2598 Y94.2118 Z-1.1 I0.0063 J-0.0108
G2 X33.2411 Y94.2009 Z-1.1333 I-0.0125 J0.0
G2 Y94.2226 Z-1.1667 I0.0062 J0.0108
G2 X33.2598 Y94.2118 Z-1.2 I0.0063 J-0.0108
G2 X33.2411 Y94.2009 Z-1.2333 I-0.0125 J0.0
G2 Y94.2226 Z-1.2667 I0.0062 J0.0108
G2 X33.2598 Y94.2118 Z-1.3 I0.0063 J-0.0108
G2 X33.2411 Y94.2009 Z-1.3333 I-0.0125 J0.0
G2 Y94.2226 Z-1.3667 I0.0062 J0.0108
G2 X33.2598 Y94.2118 Z-1.4 I0.0063 J-0.0108
G2 X33.2411 Y94.2009 Z-1.4333 I-0.0125 J0.0
G2 Y94.2226 Z-1.4667 I0.0062 J0.0108
G2 X33.2598 Y94.2118 Z-1.5 I0.0063 J-0.0108
G2 X33.2411 Y94.2009 Z-1.5333 I-0.0125 J0.0
G2 Y94.2226 Z-1.5667 I0.0062 J0.0108
G2 X33.2598 Y94.2118 Z-1.6 I0.0063 J-0.0108
G2 X33.2411 Y94.2009 Z-1.6333 I-0.0125 J0.0
G2 Y94.2226 Z-1.6667 I0.0062 J0.0108
G2 X33.2598 Y94.2118 Z-1.7 I0.0063 J-0.0108
G2 X33.2411 Y94.2009 Z-1.7333 I-0.0125 J0.0
G2 Y94.2226 Z-1.7667 I0.0062 J0.0108
G2 X33.2598 Y94.2118 Z-1.8 I0.0063 J-0.0108
G2 X33.2411 Y94.2009 Z-1.8333 I-0.0125 J0.0
G2 Y94.2226 Z-1.8667 I0.0062 J0.0108
G2 X33.2598 Y94.2118 Z-1.9 I0.0063 J-0.0108
G2 X33.2411 Y94.2009 Z-1.9333 I-0.0125 J0.0
G2 Y94.2226 Z-1.9667 I0.0062 J0.0108
G2 X33.2598 Y94.2118 Z-2.0 I0.0063 J-0.0108
G2 X33.2411 Y94.2009 Z-2.0333 I-0.0125 J0.0
G2 Y94.2226 Z-2.0667 I0.0062 J0.0108
G2 X33.2598 Y94.2118 Z-2.1 I0.0063 J-0.0108
G2 X33.2411 Y94.2009 Z-2.1333 I-0.0125 J0.0
G2 Y94.2226 Z-2.1667 I0.0062 J0.0108
G2 X33.2598 Y94.2118 Z-2.2 I0.0063 J-0.0108
G2 X33.2411 Y94.2009 Z-2.2333 I-0.0125 J0.0
G2 Y94.2226 Z-2.2667 I0.0062 J0.0108
G2 X33.2598 Y94.2118 Z-2.3 I0.0063 J-0.0108
G2 X33.2411 Y94.2009 Z-2.3333 I-0.0125 J0.0
G2 Y94.2226 Z-2.3667 I0.0062 J0.0108
G2 X33.2598 Y94.2118 Z-2.4 I0.0063 J-0.0108
G2 X33.2411 Y94.2009 Z-2.4333 I-0.0125 J0.0
G2 Y94.2226 Z-2.4667 I0.0062 J0.0108
G2 X33.2598 Y94.2118 Z-2.5 I0.0063 J-0.0108
G2 X33.2411 Y94.2009 Z-2.5333 I-0.0125 J0.0
G2 Y94.2226 Z-2.5667 I0.0062 J0.0108
G2 X33.2598 Y94.2118 Z-2.6 I0.0063 J-0.0108
G2 X33.2411 Y94.2009 Z-2.6333 I-0.0125 J0.0
G2 Y94.2226 Z-2.6667 I0.0062 J0.0108
G2 X33.2598 Y94.2118 Z-2.7 I0.0063 J-0.0108
G2 X33.2411 Y94.2009 Z-2.7333 I-0.0125 J0.0
G2 Y94.2226 Z-2.7667 I0.0062 J0.0108
G2 X33.2598 Y94.2118 Z-2.8 I0.0063 J-0.0108
G2 X33.2411 Y94.2009 Z-2.8333 I-0.0125 J0.0
G2 Y94.2226 Z-2.8667 I0.0062 J0.0108
G2 X33.2598 Y94.2118 Z-2.9 I0.0063 J-0.0108
G2 X33.2411 Y94.2009 Z-2.9333 I-0.0125 J0.0
G2 Y94.2226 Z-2.9667 I0.0063 J0.0108
G2 X33.2598 Y94.2118 Z-3.0 I0.0063 J-0.0108
G2 X33.2411 Y94.2009 Z-3.0333 I-0.0125 J0.0
G2 Y94.2226 Z-3.0667 I0.0063 J0.0108
G2 X33.2598 Y94.2118 Z-3.1 I0.0063 J-0.0108
G2 X33.2411 Y94.2009 Z-3.1333 I-0.0125 J0.0
G2 Y94.2226 Z-3.1667 I0.0063 J0.0108
G2 X33.2598 Y94.2118 Z-3.2 I0.0063 J-0.0108
G2 X33.2411 Y94.2009 I-0.0125 J0.0
G2 Y94.2226 I0.0063 J0.0108
G2 X33.2598 Y94.2118 I0.0062 J-0.0108
G0 Z3.0
G0 X33.2596 Y85.9354
G1 F1000.0 Z0.0
G2 F2000.0 X33.2408 Y85.9246 Z-0.0333 I-0.0125 J0.0
G2 Y85.9463 Z-0.0667 I0.0062 J0.0108
G2 X33.2596 Y85.9354 Z-0.1 I0.0063 J-0.0108
G2 X33.2408 Y85.9246 Z-0.1333 I-0.0125 J0.0
G2 Y85.9463 Z-0.1667 I0.0062 J0.0108
G2 X33.2596 Y85.9354 Z-0.2 I0.0063 J-0.0108
G2 X33.2408 Y85.9246 Z-0.2333 I-0.0125 J0.0
G2 Y85.9463 Z-0.2667 I0.0062 J0.0108
G2 X33.2596 Y85.9354 Z-0.3 I0.0063 J-0.0108
G2 X33.2408 Y85.9246 Z-0.3333 I-0.0125 J0.0
G2 Y85.9463 Z-0.3667 I0.0062 J0.0108
G2 X33.2596 Y85.9354 Z-0.4 I0.0063 J-0.0108
G2 X33.2408 Y85.9246 Z-0.4333 I-0.0125 J0.0
G2 Y85.9463 Z-0.4667 I0.0062 J0.0108
G2 X33.2596 Y85.9354 Z-0.5 I0.0063 J-0.0108
G2 X33.2408 Y85.9246 Z-0.5333 I-0.0125 J0.0
G2 Y85.9463 Z-0.5667 I0.0062 J0.0108
G2 X33.2596 Y85.9354 Z-0.6 I0.0063 J-0.0108
G2 X33.2408 Y85.9246 Z-0.6333 I-0.0125 J0.0
G2 Y85.9463 Z-0.6667 I0.0062 J0.0108
G2 X33.2596 Y85.9354 Z-0.7 I0.0063 J-0.0108
G2 X33.2408 Y85.9246 Z-0.7333 I-0.0125 J0.0
G2 Y85.9463 Z-0.7667 I0.0062 J0.0108
G2 X33.2596 Y85.9354 Z-0.8 I0.0063 J-0.0108
G2 X33.2408 Y85.9246 Z-0.8333 I-0.0125 J0.0
G2 Y85.9463 Z-0.8667 I0.0062 J0.0108
G2 X33.2596 Y85.9354 Z-0.9 I0.0063 J-0.0108
G2 X33.2408 Y85.9246 Z-0.9333 I-0.0125 J0.0
G2 Y85.9463 Z-0.9667 I0.0062 J0.0108
G2 X33.2596 Y85.9354 Z-1.0 I0.0063 J-0.0108
G2 X33.2408 Y85.9246 Z-1.0333 I-0.0125 J0.0
G2 Y85.9463 Z-1.0667 I0.0062 J0.0108
G2 X33.2596 Y85.9354 Z-1.1 I0.0063 J-0.0108
G2 X33.2408 Y85.9246 Z-1.1333 I-0.0125 J0.0
G2 Y85.9463 Z-1.1667 I0.0062 J0.0108
G2 X33.2596 Y85.9354 Z-1.2 I0.0063 J-0.0108
G2 X33.2408 Y85.9246 Z-1.2333 I-0.0125 J0.0
G2 Y85.9463 Z-1.2667 I0.0062 J0.0108
G2 X33.2596 Y85.9354 Z-1.3 I0.0063 J-0.0108
G2 X33.2408 Y85.9246 Z-1.3333 I-0.0125 J0.0
G2 Y85.9463 Z-1.3667 I0.0062 J0.0108
G2 X33.2596 Y85.9354 Z-1.4 I0.0063 J-0.0108
G2 X33.2408 Y85.9246 Z-1.4333 I-0.0125 J0.0
G2 Y85.9463 Z-1.4667 I0.0062 J0.0108
G2 X33.2596 Y85.9354 Z-1.5 I0.0063 J-0.0108
G2 X33.2408 Y85.9246 Z-1.5333 I-0.0125 J0.0
G2 Y85.9463 Z-1.5667 I0.0062 J0.0108
G2 X33.2596 Y85.9354 Z-1.6 I0.0063 J-0.0108
G2 X33.2408 Y85.9246 Z-1.6333 I-0.0125 J0.0
G2 Y85.9463 Z-1.6667 I0.0062 J0.0108
G2 X33.2596 Y85.9354 Z-1.7 I0.0063 J-0.0108
G2 X33.2408 Y85.9246 Z-1.7333 I-0.0125 J0.0
G2 Y85.9463 Z-1.7667 I0.0062 J0.0108
G2 X33.2596 Y85.9354 Z-1.8 I0.0063 J-0.0108
G2 X33.2408 Y85.9246 Z-1.8333 I-0.0125 J0.0
G2 Y85.9463 Z-1.8667 I0.0062 J0.0108
G2 X33.2596 Y85.9354 Z-1.9 I0.0063 J-0.0108
G2 X33.2408 Y85.9246 Z-1.9333 I-0.0125 J0.0
G2 Y85.9463 Z-1.9667 I0.0062 J0.0108
G2 X33.2596 Y85.9354 Z-2.0 I0.0063 J-0.0108
G2 X33.2408 Y85.9246 Z-2.0333 I-0.0125 J0.0
G2 Y85.9463 Z-2.0667 I0.0062 J0.0108
G2 X33.2596 Y85.9354 Z-2.1 I0.0063 J-0.0108
G2 X33.2408 Y85.9246 Z-2.1333 I-0.0125 J0.0
G2 Y85.9463 Z-2.1667 I0.0062 J0.0108
G2 X33.2596 Y85.9354 Z-2.2 I0.0063 J-0.0108
G2 X33.2408 Y85.9246 Z-2.2333 I-0.0125 J0.0
G2 Y85.9463 Z-2.2667 I0.0062 J0.0108
G2 X33.2596 Y85.9354 Z-2.3 I0.0063 J-0.0108
G2 X33.2408 Y85.9246 Z-2.3333 I-0.0125 J0.0
G2 Y85.9463 Z-2.3667 I0.0062 J0.0108
G2 X33.2596 Y85.9354 Z-2.4 I0.0063 J-0.0108
G2 X33.2408 Y85.9246 Z-2.4333 I-0.0125 J0.0
G2 Y85.9463 Z-2.4667 I0.0062 J0.0108
G2 X33.2596 Y85.9354 Z-2.5 I0.0063 J-0.0108
G2 X33.2408 Y85.9246 Z-2.5333 I-0.0125 J0.0
G2 Y85.9463 Z-2.5667 I0.0062 J0.0108
G2 X33.2596 Y85.9354 Z-2.6 I0.0063 J-0.0108
G2 X33.2408 Y85.9246 Z-2.6333 I-0.0125 J0.0
G2 Y85.9463 Z-2.6667 I0.0062 J0.0108
G2 X33.2596 Y85.9354 Z-2.7 I0.0063 J-0.0108
G2 X33.2408 Y85.9246 Z-2.7333 I-0.0125 J0.0
G2 Y85.9463 Z-2.7667 I0.0062 J0.0108
G2 X33.2596 Y85.9354 Z-2.8 I0.0063 J-0.0108
G2 X33.2408 Y85.9246 Z-2.8333 I-0.0125 J0.0
G2 Y85.9463 Z-2.8667 I0.0062 J0.0108
G2 X33.2596 Y85.9354 Z-2.9 I0.0063 J-0.0108
G2 X33.2408 Y85.9246 Z-2.9333 I-0.0125 J0.0
G2 Y85.9463 Z-2.9667 I0.0063 J0.0108
G2 X33.2596 Y85.9354 Z-3.0 I0.0063 J-0.0108
G2 X33.2408 Y85.9246 Z-3.0333 I-0.0125 J0.0
G2 Y85.9463 Z-3.0667 I0.0063 J0.0108
G2 X33.2596 Y85.9354 Z-3.1 I0.0063 J-0.0108
G2 X33.2408 Y85.9246 Z-3.1333 I-0.0125 J0.0
G2 Y85.9463 Z-3.1667 I0.0063 J0.0108
G2 X33.2596 Y85.9354 Z-3.2 I0.0063 J-0.0108
G2 X33.2408 Y85.9246 I-0.0125 J0.0
G2 Y85.9463 I0.0063 J0.0108
G2 X33.2596 Y85.9354 I0.0062 J-0.0108
G0 Z3.0
G0 Y77.623
G1 F1000.0 Z0.0
G2 F2000.0 X33.2408 Y77.6122 Z-0.0333 I-0.0125 J0.0
G2 Y77.6339 Z-0.0667 I0.0062 J0.0108
G2 X33.2596 Y77.623 Z-0.1 I0.0063 J-0.0108
G2 X33.2408 Y77.6122 Z-0.1333 I-0.0125 J0.0
G2 Y77.6339 Z-0.1667 I0.0062 J0.0108
G2 X33.2596 Y77.623 Z-0.2 I0.0063 J-0.0108
G2 X33.2408 Y77.6122 Z-0.2333 I-0.0125 J0.0
G2 Y77.6339 Z-0.2667 I0.0062 J0.0108
G2 X33.2596 Y77.623 Z-0.3 I0.0063 J-0.0108
G2 X33.2408 Y77.6122 Z-0.3333 I-0.0125 J0.0
G2 Y77.6339 Z-0.3667 I0.0062 J0.0108
G2 X33.2596 Y77.623 Z-0.4 I0.0063 J-0.0108
G2 X33.2408 Y77.6122 Z-0.4333 I-0.0125 J0.0
G2 Y77.6339 Z-0.4667 I0.0062 J0.0108
G2 X33.2596 Y77.623 Z-0.5 I0.0063 J-0.0108
G2 X33.2408 Y77.6122 Z-0.5333 I-0.0125 J0.0
G2 Y77.6339 Z-0.5667 I0.0062 J0.0108
G2 X33.2596 Y77.623 Z-0.6 I0.0063 J-0.0108
G2 X33.2408 Y77.6122 Z-0.6333 I-0.0125 J0.0
G2 Y77.6339 Z-0.6667 I0.0062 J0.0108
G2 X33.2596 Y77.623 Z-0.7 I0.0063 J-0.0108
G2 X33.2408 Y77.6122 Z-0.7333 I-0.0125 J0.0
G2 Y77.6339 Z-0.7667 I0.0062 J0.0108
G2 X33.2596 Y77.623 Z-0.8 I0.0063 J-0.0108
G2 X33.2408 Y77.6122 Z-0.8333 I-0.0125 J0.0
G2 Y77.6339 Z-0.8667 I0.0062 J0.0108
G2 X33.2596 Y77.623 Z-0.9 I0.0063 J-0.0108
G2 X33.2408 Y77.6122 Z-0.9333 I-0.0125 J0.0
G2 Y77.6339 Z-0.9667 I0.0062 J0.0108
G2 X33.2596 Y77.623 Z-1.0 I0.0063 J-0.0108
G2 X33.2408 Y77.6122 Z-1.0333 I-0.0125 J0.0
G2 Y77.6339 Z-1.0667 I0.0062 J0.0108
G2 X33.2596 Y77.623 Z-1.1 I0.0063 J-0.0108
G2 X33.2408 Y77.6122 Z-1.1333 I-0.0125 J0.0
G2 Y77.6339 Z-1.1667 I0.0062 J0.0108
G2 X33.2596 Y77.623 Z-1.2 I0.0063 J-0.0108
G2 X33.2408 Y77.6122 Z-1.2333 I-0.0125 J0.0
G2 Y77.6339 Z-1.2667 I0.0062 J0.0108
G2 X33.2596 Y77.623 Z-1.3 I0.0063 J-0.0108
G2 X33.2408 Y77.6122 Z-1.3333 I-0.0125 J0.0
G2 Y77.6339 Z-1.3667 I0.0062 J0.0108
G2 X33.2596 Y77.623 Z-1.4 I0.0063 J-0.0108
G2 X33.2408 Y77.6122 Z-1.4333 I-0.0125 J0.0
G2 Y77.6339 Z-1.4667 I0.0062 J0.0108
G2 X33.2596 Y77.623 Z-1.5 I0.0063 J-0.0108
G2 X33.2408 Y77.6122 Z-1.5333 I-0.0125 J0.0
G2 Y77.6339 Z-1.5667 I0.0062 J0.0108
G2 X33.2596 Y77.623 Z-1.6 I0.0063 J-0.0108
G2 X33.2408 Y77.6122 Z-1.6333 I-0.0125 J0.0
G2 Y77.6339 Z-1.6667 I0.0062 J0.0108
G2 X33.2596 Y77.623 Z-1.7 I0.0063 J-0.0108
G2 X33.2408 Y77.6122 Z-1.7333 I-0.0125 J0.0
G2 Y77.6339 Z-1.7667 I0.0062 J0.0108
G2 X33.2596 Y77.623 Z-1.8 I0.0063 J-0.0108
G2 X33.2408 Y77.6122 Z-1.8333 I-0.0125 J0.0
G2 Y77.6339 Z-1.8667 I0.0062 J0.0108
G2 X33.2596 Y77.623 Z-1.9 I0.0063 J-0.0108
G2 X33.2408 Y77.6122 Z-1.9333 I-0.0125 J0.0
G2 Y77.6339 Z-1.9667 I0.0062 J0.0108
G2 X33.2596 Y77.623 Z-2.0 I0.0063 J-0.0108
G2 X33.2408 Y77.6122 Z-2.0333 I-0.0125 J0.0
G2 Y77.6339 Z-2.0667 I0.0062 J0.0108
G2 X33.2596 Y77.623 Z-2.1 I0.0063 J-0.0108
G2 X33.2408 Y77.6122 Z-2.1333 I-0.0125 J0.0
G2 Y77.6339 Z-2.1667 I0.0062 J0.0108
G2 X33.2596 Y77.623 Z-2.2 I0.0063 J-0.0108
G2 X33.2408 Y77.6122 Z-2.2333 I-0.0125 J0.0
G2 Y77.6339 Z-2.2667 I0.0062 J0.0108
G2 X33.2596 Y77.623 Z-2.3 I0.0063 J-0.0108
G2 X33.2408 Y77.6122 Z-2.3333 I-0.0125 J0.0
G2 Y77.6339 Z-2.3667 I0.0062 J0.0108
G2 X33.2596 Y77.623 Z-2.4 I0.0063 J-0.0108
G2 X33.2408 Y77.6122 Z-2.4333 I-0.0125 J0.0
G2 Y77.6339 Z-2.4667 I0.0062 J0.0108
G2 X33.2596 Y77.623 Z-2.5 I0.0063 J-0.0108
G2 X33.2408 Y77.6122 Z-2.5333 I-0.0125 J0.0
G2 Y77.6339 Z-2.5667 I0.0062 J0.0108
G2 X33.2596 Y77.623 Z-2.6 I0.0063 J-0.0108
G2 X33.2408 Y77.6122 Z-2.6333 I-0.0125 J0.0
G2 Y77.6339 Z-2.6667 I0.0062 J0.0108
G2 X33.2596 Y77.623 Z-2.7 I0.0063 J-0.0108
G2 X33.2408 Y77.6122 Z-2.7333 I-0.0125 J0.0
G2 Y77.6339 Z-2.7667 I0.0062 J0.0108
G2 X33.2596 Y77.623 Z-2.8 I0.0063 J-0.0108
G2 X33.2408 Y77.6122 Z-2.8333 I-0.0125 J0.0
G2 Y77.6339 Z-2.8667 I0.0062 J0.0108
G2 X33.2596 Y77.623 Z-2.9 I0.0063 J-0.0108
G2 X33.2408 Y77.6122 Z-2.9333 I-0.0125 J0.0
G2 Y77.6339 Z-2.9667 I0.0063 J0.0108
G2 X33.2596 Y77.623 Z-3.0 I0.0063 J-0.0108
G2 X33.2408 Y77.6122 Z-3.0333 I-0.0125 J0.0
G2 Y77.6339 Z-3.0667 I0.0063 J0.0108
G2 X33.2596 Y77.623 Z-3.1 I0.0063 J-0.0108
G2 X33.2408 Y77.6122 Z-3.1333 I-0.0125 J0.0
G2 Y77.6339 Z-3.1667 I0.0063 J0.0108
G2 X33.2596 Y77.623 Z-3.2 I0.0063 J-0.0108
G2 X33.2408 Y77.6122 I-0.0125 J0.0
G2 Y77.6339 I0.0063 J0.0108
G2 X33.2596 Y77.623 I0.0062 J-0.0108
G0 Z3.0
G0 X33.275 Y69.5008
G1 F1000.0 Z0.0
G2 F2000.0 X33.2562 Y69.4899 Z-0.0333 I-0.0125 J0.0
G2 Y69.5116 Z-0.0667 I0.0062 J0.0108
G2 X33.275 Y69.5008 Z-0.1 I0.0063 J-0.0108
G2 X33.2562 Y69.4899 Z-0.1333 I-0.0125 J0.0
G2 Y69.5116 Z-0.1667 I0.0062 J0.0108
G2 X33.275 Y69.5008 Z-0.2 I0.0063 J-0.0108
G2 X33.2562 Y69.4899 Z-0.2333 I-0.0125 J0.0
G2 Y69.5116 Z-0.2667 I0.0062 J0.0108
G2 X33.275 Y69.5008 Z-0.3 I0.0063 J-0.0108
G2 X33.2562 Y69.4899 Z-0.3333 I-0.0125 J0.0
G2 Y69.5116 Z-0.3667 I0.0062 J0.0108
G2 X33.275 Y69.5008 Z-0.4 I0.0063 J-0.0108
G2 X33.2562 Y69.4899 Z-0.4333 I-0.0125 J0.0
G2 Y69.5116 Z-0.4667 I0.0062 J0.0108
G2 X33.275 Y69.5008 Z-0.5 I0.0063 J-0.0108
G2 X33.2562 Y69.4899 Z-0.5333 I-0.0125 J0.0
G2 Y69.5116 Z-0.5667 I0.0062 J0.0108
G2 X33.275 Y69.5008 Z-0.6 I0.0063 J-0.0108
G2 X33.2562 Y69.4899 Z-0.6333 I-0.0125 J0.0
G2 Y69.5116 Z-0.6667 I0.0062 J0.0108
G2 X33.275 Y69.5008 Z-0.7 I0.0063 J-0.0108
G2 X33.2562 Y69.4899 Z-0.7333 I-0.0125 J0.0
G2 Y69.5116 Z-0.7667 I0.0062 J0.0108
G2 X33.275 Y69.5008 Z-0.8 I0.0063 J-0.0108
G2 X33.2562 Y69.4899 Z-0.8333 I-0.0125 J0.0
G2 Y69.5116 Z-0.8667 I0.0062 J0.0108
G2 X33.275 Y69.5008 Z-0.9 I0.0063 J-0.0108
G2 X33.2562 Y69.4899 Z-0.9333 I-0.0125 J0.0
G2 Y69.5116 Z-0.9667 I0.0062 J0.0108
G2 X33.275 Y69.5008 Z-1.0 I0.0063 J-0.0108
G2 X33.2562 Y69.4899 Z-1.0333 I-0.0125 J0.0
G2 Y69.5116 Z-1.0667 I0.0062 J0.0108
G2 X33.275 Y69.5008 Z-1.1 I0.0063 J-0.0108
G2 X33.2562 Y69.4899 Z-1.1333 I-0.0125 J0.0
G2 Y69.5116 Z-1.1667 I0.0062 J0.0108
G2 X33.275 Y69.5008 Z-1.2 I0.0063 J-0.0108
G2 X33.2562 Y69.4899 Z-1.2333 I-0.0125 J0.0
G2 Y69.5116 Z-1.2667 I0.0062 J0.0108
G2 X33.275 Y69.5008 Z-1.3 I0.0063 J-0.0108
G2 X33.2562 Y69.4899 Z-1.3333 I-0.0125 J0.0
G2 Y69.5116 Z-1.3667 I0.0062 J0.0108
G2 X33.275 Y69.5008 Z-1.4 I0.0063 J-0.0108
G2 X33.2562 Y69.4899 Z-1.4333 I-0.0125 J0.0
G2 Y69.5116 Z-1.4667 I0.0062 J0.0108
G2 X33.275 Y69.5008 Z-1.5 I0.0063 J-0.0108
G2 X33.2562 Y69.4899 Z-1.5333 I-0.0125 J0.0
G2 Y69.5116 Z-1.5667 I0.0062 J0.0108
G2 X33.275 Y69.5008 Z-1.6 I0.0063 J-0.0108
G2 X33.2562 Y69.4899 Z-1.6333 I-0.0125 J0.0
G2 Y69.5116 Z-1.6667 I0.0062 J0.0108
G2 X33.275 Y69.5008 Z-1.7 I0.0063 J-0.0108
G2 X33.2562 Y69.4899 Z-1.7333 I-0.0125 J0.0
G2 Y69.5116 Z-1.7667 I0.0062 J0.0108
G2 X33.275 Y69.5008 Z-1.8 I0.0063 J-0.0108
G2 X33.2562 Y69.4899 Z-1.8333 I-0.0125 J0.0
G2 Y69.5116 Z-1.8667 I0.0062 J0.0108
G2 X33.275 Y69.5008 Z-1.9 I0.0063 J-0.0108
G2 X33.2562 Y69.4899 Z-1.9333 I-0.0125 J0.0
G2 Y69.5116 Z-1.9667 I0.0062 J0.0108
G2 X33.275 Y69.5008 Z-2.0 I0.0063 J-0.0108
G2 X33.2562 Y69.4899 Z-2.0333 I-0.0125 J0.0
G2 Y69.5116 Z-2.0667 I0.0062 J0.0108
G2 X33.275 Y69.5008 Z-2.1 I0.0063 J-0.0108
G2 X33.2562 Y69.4899 Z-2.1333 I-0.0125 J0.0
G2 Y69.5116 Z-2.1667 I0.0062 J0.0108
G2 X33.275 Y69.5008 Z-2.2 I0.0063 J-0.0108
G2 X33.2562 Y69.4899 Z-2.2333 I-0.0125 J0.0
G2 Y69.5116 Z-2.2667 I0.0062 J0.0108
G2 X33.275 Y69.5008 Z-2.3 I0.0063 J-0.0108
G2 X33.2562 Y69.4899 Z-2.3333 I-0.0125 J0.0
G2 Y69.5116 Z-2.3667 I0.0062 J0.0108
G2 X33.275 Y69.5008 Z-2.4 I0.0063 J-0.0108
G2 X33.2562 Y69.4899 Z-2.4333 I-0.0125 J0.0
G2 Y69.5116 Z-2.4667 I0.0062 J0.0108
G2 X33.275 Y69.5008 Z-2.5 I0.0063 J-0.0108
G2 X33.2562 Y69.4899 Z-2.5333 I-0.0125 J0.0
G2 Y69.5116 Z-2.5667 I0.0062 J0.0108
G2 X33.275 Y69.5008 Z-2.6 I0.0063 J-0.0108
G2 X33.2562 Y69.4899 Z-2.6333 I-0.0125 J0.0
G2 Y69.5116 Z-2.6667 I0.0062 J0.0108
G2 X33.275 Y69.5008 Z-2.7 I0.0063 J-0.0108
G2 X33.2562 Y69.4899 Z-2.7333 I-0.0125 J0.0
G2 Y69.5116 Z-2.7667 I0.0062 J0.0108
G2 X33.275 Y69.5008 Z-2.8 I0.0063 J-0.0108
G2 X33.2562 Y69.4899 Z-2.8333 I-0.0125 J0.0
G2 Y69.5116 Z-2.8667 I0.0062 J0.0108
G2 X33.275 Y69.5008 Z-2.9 I0.0063 J-0.0108
G2 X33.2562 Y69.4899 Z-2.9333 I-0.0125 J0.0
G2 Y69.5116 Z-2.9667 I0.0063 J0.0108
G2 X33.275 Y69.5008 Z-3.0 I0.0063 J-0.0108
G2 X33.2562 Y69.4899 Z-3.0333 I-0.0125 J0.0
G2 Y69.5116 Z-3.0667 I0.0063 J0.0108
G2 X33.275 Y69.5008 Z-3.1 I0.0063 J-0.0108
G2 X33.2562 Y69.4899 Z-3.1333 I-0.0125 J0.0
G2 Y69.5116 Z-3.1667 I0.0063 J0.0108
G2 X33.275 Y69.5008 Z-3.2 I0.0063 J-0.0108
G2 X33.2562 Y69.4899 I-0.0125 J0.0
G2 Y69.5116 I0.0063 J0.0108
G2 X33.275 Y69.5008 I0.0062 J-0.0108
G0 Z3.0
G0 X33.2351 Y61.2011
G1 F1000.0 Z0.0
G2 F2000.0 X33.2163 Y61.1903 Z-0.0333 I-0.0125 J0.0
G2 Y61.2119 Z-0.0667 I0.0063 J0.0108
G2 X33.2351 Y61.2011 Z-0.1 I0.0063 J-0.0108
G2 X33.2163 Y61.1903 Z-0.1333 I-0.0125 J0.0
G2 Y61.2119 Z-0.1667 I0.0063 J0.0108
G2 X33.2351 Y61.2011 Z-0.2 I0.0063 J-0.0108
G2 X33.2163 Y61.1903 Z-0.2333 I-0.0125 J0.0
G2 Y61.2119 Z-0.2667 I0.0063 J0.0108
G2 X33.2351 Y61.2011 Z-0.3 I0.0063 J-0.0108
G2 X33.2163 Y61.1903 Z-0.3333 I-0.0125 J0.0
G2 Y61.2119 Z-0.3667 I0.0063 J0.0108
G2 X33.2351 Y61.2011 Z-0.4 I0.0063 J-0.0108
G2 X33.2163 Y61.1903 Z-0.4333 I-0.0125 J0.0
G2 Y61.2119 Z-0.4667 I0.0063 J0.0108
G2 X33.2351 Y61.2011 Z-0.5 I0.0063 J-0.0108
G2 X33.2163 Y61.1903 Z-0.5333 I-0.0125 J0.0
G2 Y61.2119 Z-0.5667 I0.0063 J0.0108
G2 X33.2351 Y61.2011 Z-0.6 I0.0063 J-0.0108
G2 X33.2163 Y61.1903 Z-0.6333 I-0.0125 J0.0
G2 Y61.2119 Z-0.6667 I0.0063 J0.0108
G2 X33.2351 Y61.2011 Z-0.7 I0.0063 J-0.0108
G2 X33.2163 Y61.1903 Z-0.7333 I-0.0125 J0.0
G2 Y61.2119 Z-0.7667 I0.0063 J0.0108
G2 X33.2351 Y61.2011 Z-0.8 I0.0063 J-0.0108
G2 X33.2163 Y61.1903 Z-0.8333 I-0.0125 J0.0
G2 Y61.2119 Z-0.8667 I0.0063 J0.0108
G2 X33.2351 Y61.2011 Z-0.9 I0.0063 J-0.0108
G2 X33.2163 Y61.1903 Z-0.9333 I-0.0125 J0.0
G2 Y61.2119 Z-0.9667 I0.0063 J0.0108
G2 X33.2351 Y61.2011 Z-1.0 I0.0063 J-0.0108
G2 X33.2163 Y61.1903 Z-1.0333 I-0.0125 J0.0
G2 Y61.2119 Z-1.0667 I0.0063 J0.0108
G2 X33.2351 Y61.2011 Z-1.1 I0.0063 J-0.0108
G2 X33.2163 Y61.1903 Z-1.1333 I-0.0125 J0.0
G2 Y61.2119 Z-1.1667 I0.0063 J0.0108
G2 X33.2351 Y61.2011 Z-1.2 I0.0063 J-0.0108
G2 X33.2163 Y61.1903 Z-1.2333 I-0.0125 J0.0
G2 Y61.2119 Z-1.2667 I0.0063 J0.0108
G2 X33.2351 Y61.2011 Z-1.3 I0.0063 J-0.0108
G2 X33.2163 Y61.1903 Z-1.3333 I-0.0125 J0.0
G2 Y61.2119 Z-1.3667 I0.0063 J0.0108
G2 X33.2351 Y61.2011 Z-1.4 I0.0063 J-0.0108
G2 X33.2163 Y61.1903 Z-1.4333 I-0.0125 J0.0
G2 Y61.2119 Z-1.4667 I0.0063 J0.0108
G2 X33.2351 Y61.2011 Z-1.5 I0.0063 J-0.0108
G2 X33.2163 Y61.1903 Z-1.5333 I-0.0125 J0.0
G2 Y61.2119 Z-1.5667 I0.0063 J0.0108
G2 X33.2351 Y61.2011 Z-1.6 I0.0063 J-0.0108
G2 X33.2163 Y61.1903 Z-1.6333 I-0.0125 J0.0
G2 Y61.2119 Z-1.6667 I0.0063 J0.0108
G2 X33.2351 Y61.2011 Z-1.7 I0.0063 J-0.0108
G2 X33.2163 Y61.1903 Z-1.7333 I-0.0125 J0.0
G2 Y61.2119 Z-1.7667 I0.0063 J0.0108
G2 X33.2351 Y61.2011 Z-1.8 I0.0063 J-0.0108
G2 X33.2163 Y61.1903 Z-1.8333 I-0.0125 J0.0
G2 Y61.2119 Z-1.8667 I0.0063 J0.0108
G2 X33.2351 Y61.2011 Z-1.9 I0.0063 J-0.0108
G2 X33.2163 Y61.1903 Z-1.9333 I-0.0125 J0.0
G2 Y61.2119 Z-1.9667 I0.0063 J0.0108
G2 X33.2351 Y61.2011 Z-2.0 I0.0063 J-0.0108
G2 X33.2163 Y61.1903 Z-2.0333 I-0.0125 J0.0
G2 Y61.2119 Z-2.0667 I0.0063 J0.0108
G2 X33.2351 Y61.2011 Z-2.1 I0.0063 J-0.0108
G2 X33.2163 Y61.1903 Z-2.1333 I-0.0125 J0.0
G2 Y61.2119 Z-2.1667 I0.0063 J0.0108
G2 X33.2351 Y61.2011 Z-2.2 I0.0063 J-0.0108
G2 X33.2163 Y61.1903 Z-2.2333 I-0.0125 J0.0
G2 Y61.2119 Z-2.2667 I0.0063 J0.0108
G2 X33.2351 Y61.2011 Z-2.3 I0.0063 J-0.0108
G2 X33.2163 Y61.1903 Z-2.3333 I-0.0125 J0.0
G2 Y61.2119 Z-2.3667 I0.0063 J0.0108
G2 X33.2351 Y61.2011 Z-2.4 I0.0063 J-0.0108
G2 X33.2163 Y61.1903 Z-2.4333 I-0.0125 J0.0
G2 Y61.2119 Z-2.4667 I0.0063 J0.0108
G2 X33.2351 Y61.2011 Z-2.5 I0.0063 J-0.0108
G2 X33.2163 Y61.1903 Z-2.5333 I-0.0125 J0.0
G2 Y61.2119 Z-2.5667 I0.0063 J0.0108
G2 X33.2351 Y61.2011 Z-2.6 I0.0063 J-0.0108
G2 X33.2163 Y61.1903 Z-2.6333 I-0.0125 J0.0
G2 Y61.2119 Z-2.6667 I0.0063 J0.0108
G2 X33.2351 Y61.2011 Z-2.7 I0.0063 J-0.0108
G2 X33.2163 Y61.1903 Z-2.7333 I-0.0125 J0.0
G2 Y61.2119 Z-2.7667 I0.0063 J0.0108
G2 X33.2351 Y61.2011 Z-2.8 I0.0063 J-0.0108
G2 X33.2163 Y61.1903 Z-2.8333 I-0.0125 J0.0
G2 Y61.2119 Z-2.8667 I0.0063 J0.0108
G2 X33.2351 Y61.2011 Z-2.9 I0.0063 J-0.0108
G2 X33.2163 Y61.1903 Z-2.9333 I-0.0125 J0.0
G2 Y61.2119 Z-2.9667 I0.0063 J0.0108
G2 X33.2351 Y61.2011 Z-3.0 I0.0062 J-0.0108
G2 X33.2163 Y61.1903 Z-3.0333 I-0.0125 J0.0
G2 Y61.2119 Z-3.0667 I0.0063 J0.0108
G2 X33.2351 Y61.2011 Z-3.1 I0.0062 J-0.0108
G2 X33.2163 Y61.1903 Z-3.1333 I-0.0125 J0.0
G2 Y61.2119 Z-3.1667 I0.0063 J0.0108
G2 X33.2351 Y61.2011 Z-3.2 I0.0062 J-0.0108
G2 X33.2163 Y61.1903 I-0.0125 J0.0
G2 Y61.2119 I0.0063 J0.0108
G2 X33.2351 Y61.2011 I0.0062 J-0.0108
G0 Z3.0
G0 Y52.9413
G1 F1000.0 Z0.0
G2 F2000.0 X33.2163 Y52.9305 Z-0.0333 I-0.0125 J0.0
G2 Y52.9522 Z-0.0667 I0.0063 J0.0108
G2 X33.2351 Y52.9413 Z-0.1 I0.0063 J-0.0108
G2 X33.2163 Y52.9305 Z-0.1333 I-0.0125 J0.0
G2 Y52.9522 Z-0.1667 I0.0063 J0.0108
G2 X33.2351 Y52.9413 Z-0.2 I0.0063 J-0.0108
G2 X33.2163 Y52.9305 Z-0.2333 I-0.0125 J0.0
G2 Y52.9522 Z-0.2667 I0.0063 J0.0108
G2 X33.2351 Y52.9413 Z-0.3 I0.0063 J-0.0108
G2 X33.2163 Y52.9305 Z-0.3333 I-0.0125 J0.0
G2 Y52.9522 Z-0.3667 I0.0063 J0.0108
G2 X33.2351 Y52.9413 Z-0.4 I0.0063 J-0.0108
G2 X33.2163 Y52.9305 Z-0.4333 I-0.0125 J0.0
G2 Y52.9522 Z-0.4667 I0.0063 J0.0108
G2 X33.2351 Y52.9413 Z-0.5 I0.0063 J-0.0108
G2 X33.2163 Y52.9305 Z-0.5333 I-0.0125 J0.0
G2 Y52.9522 Z-0.5667 I0.0063 J0.0108
G2 X33.2351 Y52.9413 Z-0.6 I0.0063 J-0.0108
G2 X33.2163 Y52.9305 Z-0.6333 I-0.0125 J0.0
G2 Y52.9522 Z-0.6667 I0.0063 J0.0108
G2 X33.2351 Y52.9413 Z-0.7 I0.0063 J-0.0108
G2 X33.2163 Y52.9305 Z-0.7333 I-0.0125 J0.0
G2 Y52.9522 Z-0.7667 I0.0063 J0.0108
G2 X33.2351 Y52.9413 Z-0.8 I0.0063 J-0.0108
G2 X33.2163 Y52.9305 Z-0.8333 I-0.0125 J0.0
G2 Y52.9522 Z-0.8667 I0.0063 J0.0108
G2 X33.2351 Y52.9413 Z-0.9 I0.0063 J-0.0108
G2 X33.2163 Y52.9305 Z-0.9333 I-0.0125 J0.0
G2 Y52.9522 Z-0.9667 I0.0063 J0.0108
G2 X33.2351 Y52.9413 Z-1.0 I0.0063 J-0.0108
G2 X33.2163 Y52.9305 Z-1.0333 I-0.0125 J0.0
G2 Y52.9522 Z-1.0667 I0.0063 J0.0108
G2 X33.2351 Y52.9413 Z-1.1 I0.0063 J-0.0108
G2 X33.2163 Y52.9305 Z-1.1333 I-0.0125 J0.0
G2 Y52.9522 Z-1.1667 I0.0063 J0.0108
G2 X33.2351 Y52.9413 Z-1.2 I0.0063 J-0.0108
G2 X33.2163 Y52.9305 Z-1.2333 I-0.0125 J0.0
G2 Y52.9522 Z-1.2667 I0.0063 J0.0108
G2 X33.2351 Y52.9413 Z-1.3 I0.0063 J-0.0108
G2 X33.2163 Y52.9305 Z-1.3333 I-0.0125 J0.0
G2 Y52.9522 Z-1.3667 I0.0063 J0.0108
G2 X33.2351 Y52.9413 Z-1.4 I0.0063 J-0.0108
G2 X33.2163 Y52.9305 Z-1.4333 I-0.0125 J0.0
G2 Y52.9522 Z-1.4667 I0.0063 J0.0108
G2 X33.2351 Y52.9413 Z-1.5 I0.0063 J-0.0108
G2 X33.2163 Y52.9305 Z-1.5333 I-0.0125 J0.0
G2 Y52.9522 Z-1.5667 I0.0063 J0.0108
G2 X33.2351 Y52.9413 Z-1.6 I0.0063 J-0.0108
G2 X33.2163 Y52.9305 Z-1.6333 I-0.0125 J0.0
G2 Y52.9522 Z-1.6667 I0.0063 J0.0108
G2 X33.2351 Y52.9413 Z-1.7 I0.0063 J-0.0108
G2 X33.2163 Y52.9305 Z-1.7333 I-0.0125 J0.0
G2 Y52.9522 Z-1.7667 I0.0063 J0.0108
G2 X33.2351 Y52.9413 Z-1.8 I0.0063 J-0.0108
G2 X33.2163 Y52.9305 Z-1.8333 I-0.0125 J0.0
G2 Y52.9522 Z-1.8667 I0.0063 J0.0108
G2 X33.2351 Y52.9413 Z-1.9 I0.0063 J-0.0108
G2 X33.2163 Y52.9305 Z-1.9333 I-0.0125 J0.0
G2 Y52.9522 Z-1.9667 I0.0063 J0.0108
G2 X33.2351 Y52.9413 Z-2.0 I0.0063 J-0.0108
G2 X33.2163 Y52.9305 Z-2.0333 I-0.0125 J0.0
G2 Y52.9522 Z-2.0667 I0.0063 J0.0108
G2 X33.2351 Y52.9413 Z-2.1 I0.0063 J-0.0108
G2 X33.2163 Y52.9305 Z-2.1333 I-0.0125 J0.0
G2 Y52.9522 Z-2.1667 I0.0063 J0.0108
G2 X33.2351 Y52.9413 Z-2.2 I0.0063 J-0.0108
G2 X33.2163 Y52.9305 Z-2.2333 I-0.0125 J0.0
G2 Y52.9522 Z-2.2667 I0.0063 J0.0108
G2 X33.2351 Y52.9413 Z-2.3 I0.0063 J-0.0108
G2 X33.2163 Y52.9305 Z-2.3333 I-0.0125 J0.0
G2 Y52.9522 Z-2.3667 I0.0063 J0.0108
G2 X33.2351 Y52.9413 Z-2.4 I0.0063 J-0.0108
G2 X33.2163 Y52.9305 Z-2.4333 I-0.0125 J0.0
G2 Y52.9522 Z-2.4667 I0.0063 J0.0108
G2 X33.2351 Y52.9413 Z-2.5 I0.0063 J-0.0108
G2 X33.2163 Y52.9305 Z-2.5333 I-0.0125 J0.0
G2 Y52.9522 Z-2.5667 I0.0063 J0.0108
G2 X33.2351 Y52.9413 Z-2.6 I0.0063 J-0.0108
G2 X33.2163 Y52.9305 Z-2.6333 I-0.0125 J0.0
G2 Y52.9522 Z-2.6667 I0.0063 J0.0108
G2 X33.2351 Y52.9413 Z-2.7 I0.0063 J-0.0108
G2 X33.2163 Y52.9305 Z-2.7333 I-0.0125 J0.0
G2 Y52.9522 Z-2.7667 I0.0063 J0.0108
G2 X33.2351 Y52.9413 Z-2.8 I0.0063 J-0.0108
G2 X33.2163 Y52.9305 Z-2.8333 I-0.0125 J0.0
G2 Y52.9522 Z-2.8667 I0.0063 J0.0108
G2 X33.2351 Y52.9413 Z-2.9 I0.0063 J-0.0108
G2 X33.2163 Y52.9305 Z-2.9333 I-0.0125 J0.0
G2 Y52.9522 Z-2.9667 I0.0063 J0.0108
G2 X33.2351 Y52.9413 Z-3.0 I0.0062 J-0.0108
G2 X33.2163 Y52.9305 Z-3.0333 I-0.0125 J0.0
G2 Y52.9522 Z-3.0667 I0.0063 J0.0108
G2 X33.2351 Y52.9413 Z-3.1 I0.0062 J-0.0108
G2 X33.2163 Y52.9305 Z-3.1333 I-0.0125 J0.0
G2 Y52.9522 Z-3.1667 I0.0063 J0.0108
G2 X33.2351 Y52.9413 Z-3.2 I0.0062 J-0.0108
G2 X33.2163 Y52.9305 I-0.0125 J0.0
G2 Y52.9522 I0.0063 J0.0108
G2 X33.2351 Y52.9413 I0.0062 J-0.0108
G0 Z3.0
G0 X33.2825 Y44.6017
G1 F1000.0 Z0.0
G2 F2000.0 X33.2638 Y44.5908 Z-0.0333 I-0.0125 J0.0
G2 Y44.6125 Z-0.0667 I0.0063 J0.0108
G2 X33.2825 Y44.6017 Z-0.1 I0.0063 J-0.0108
G2 X33.2638 Y44.5908 Z-0.1333 I-0.0125 J0.0
G2 Y44.6125 Z-0.1667 I0.0063 J0.0108
G2 X33.2825 Y44.6017 Z-0.2 I0.0063 J-0.0108
G2 X33.2638 Y44.5908 Z-0.2333 I-0.0125 J0.0
G2 Y44.6125 Z-0.2667 I0.0063 J0.0108
G2 X33.2825 Y44.6017 Z-0.3 I0.0063 J-0.0108
G2 X33.2638 Y44.5908 Z-0.3333 I-0.0125 J0.0
G2 Y44.6125 Z-0.3667 I0.0063 J0.0108
G2 X33.2825 Y44.6017 Z-0.4 I0.0063 J-0.0108
G2 X33.2638 Y44.5908 Z-0.4333 I-0.0125 J0.0
G2 Y44.6125 Z-0.4667 I0.0063 J0.0108
G2 X33.2825 Y44.6017 Z-0.5 I0.0063 J-0.0108
G2 X33.2638 Y44.5908 Z-0.5333 I-0.0125 J0.0
G2 Y44.6125 Z-0.5667 I0.0063 J0.0108
G2 X33.2825 Y44.6017 Z-0.6 I0.0063 J-0.0108
G2 X33.2638 Y44.5908 Z-0.6333 I-0.0125 J0.0
G2 Y44.6125 Z-0.6667 I0.0063 J0.0108
G2 X33.2825 Y44.6017 Z-0.7 I0.0063 J-0.0108
G2 X33.2638 Y44.5908 Z-0.7333 I-0.0125 J0.0
G2 Y44.6125 Z-0.7667 I0.0063 J0.0108
G2 X33.2825 Y44.6017 Z-0.8 I0.0063 J-0.0108
G2 X33.2638 Y44.5908 Z-0.8333 I-0.0125 J0.0
G2 Y44.6125 Z-0.8667 I0.0063 J0.0108
G2 X33.2825 Y44.6017 Z-0.9 I0.0063 J-0.0108
G2 X33.2638 Y44.5908 Z-0.9333 I-0.0125 J0.0
G2 Y44.6125 Z-0.9667 I0.0063 J0.0108
G2 X33.2825 Y44.6017 Z-1.0 I0.0063 J-0.0108
G2 X33.2638 Y44.5908 Z-1.0333 I-0.0125 J0.0
G2 Y44.6125 Z-1.0667 I0.0063 J0.0108
G2 X33.2825 Y44.6017 Z-1.1 I0.0063 J-0.0108
G2 X33.2638 Y44.5908 Z-1.1333 I-0.0125 J0.0
G2 Y44.6125 Z-1.1667 I0.0063 J0.0108
G2 X33.2825 Y44.6017 Z-1.2 I0.0063 J-0.0108
G2 X33.2638 Y44.5908 Z-1.2333 I-0.0125 J0.0
G2 Y44.6125 Z-1.2667 I0.0063 J0.0108
G2 X33.2825 Y44.6017 Z-1.3 I0.0063 J-0.0108
G2 X33.2638 Y44.5908 Z-1.3333 I-0.0125 J0.0
G2 Y44.6125 Z-1.3667 I0.0063 J0.0108
G2 X33.2825 Y44.6017 Z-1.4 I0.0063 J-0.0108
G2 X33.2638 Y44.5908 Z-1.4333 I-0.0125 J0.0
G2 Y44.6125 Z-1.4667 I0.0063 J0.0108
G2 X33.2825 Y44.6017 Z-1.5 I0.0063 J-0.0108
G2 X33.2638 Y44.5908 Z-1.5333 I-0.0125 J0.0
G2 Y44.6125 Z-1.5667 I0.0063 J0.0108
G2 X33.2825 Y44.6017 Z-1.6 I0.0063 J-0.0108
G2 X33.2638 Y44.5908 Z-1.6333 I-0.0125 J0.0
G2 Y44.6125 Z-1.6667 I0.0063 J0.0108
G2 X33.2825 Y44.6017 Z-1.7 I0.0063 J-0.0108
G2 X33.2638 Y44.5908 Z-1.7333 I-0.0125 J0.0
G2 Y44.6125 Z-1.7667 I0.0063 J0.0108
G2 X33.2825 Y44.6017 Z-1.8 I0.0063 J-0.0108
G2 X33.2638 Y44.5908 Z-1.8333 I-0.0125 J0.0
G2 Y44.6125 Z-1.8667 I0.0063 J0.0108
G2 X33.2825 Y44.6017 Z-1.9 I0.0063 J-0.0108
G2 X33.2638 Y44.5908 Z-1.9333 I-0.0125 J0.0
G2 Y44.6125 Z-1.9667 I0.0063 J0.0108
G2 X33.2825 Y44.6017 Z-2.0 I0.0063 J-0.0108
G2 X33.2638 Y44.5908 Z-2.0333 I-0.0125 J0.0
G2 Y44.6125 Z-2.0667 I0.0063 J0.0108
G2 X33.2825 Y44.6017 Z-2.1 I0.0063 J-0.0108
G2 X33.2638 Y44.5908 Z-2.1333 I-0.0125 J0.0
G2 Y44.6125 Z-2.1667 I0.0063 J0.0108
G2 X33.2825 Y44.6017 Z-2.2 I0.0063 J-0.0108
G2 X33.2638 Y44.5908 Z-2.2333 I-0.0125 J0.0
G2 Y44.6125 Z-2.2667 I0.0063 J0.0108
G2 X33.2825 Y44.6017 Z-2.3 I0.0063 J-0.0108
G2 X33.2638 Y44.5908 Z-2.3333 I-0.0125 J0.0
G2 Y44.6125 Z-2.3667 I0.0063 J0.0108
G2 X33.2825 Y44.6017 Z-2.4 I0.0063 J-0.0108
G2 X33.2638 Y44.5908 Z-2.4333 I-0.0125 J0.0
G2 Y44.6125 Z-2.4667 I0.0063 J0.0108
G2 X33.2825 Y44.6017 Z-2.5 I0.0063 J-0.0108
G2 X33.2638 Y44.5908 Z-2.5333 I-0.0125 J0.0
G2 Y44.6125 Z-2.5667 I0.0063 J0.0108
G2 X33.2825 Y44.6017 Z-2.6 I0.0063 J-0.0108
G2 X33.2638 Y44.5908 Z-2.6333 I-0.0125 J0.0
G2 Y44.6125 Z-2.6667 I0.0063 J0.0108
G2 X33.2825 Y44.6017 Z-2.7 I0.0063 J-0.0108
G2 X33.2638 Y44.5908 Z-2.7333 I-0.0125 J0.0
G2 Y44.6125 Z-2.7667 I0.0063 J0.0108
G2 X33.2825 Y44.6017 Z-2.8 I0.0063 J-0.0108
G2 X33.2638 Y44.5908 Z-2.8333 I-0.0125 J0.0
G2 Y44.6125 Z-2.8667 I0.0063 J0.0108
G2 X33.2825 Y44.6017 Z-2.9 I0.0063 J-0.0108
G2 X33.2638 Y44.5908 Z-2.9333 I-0.0125 J0.0
G2 Y44.6125 Z-2.9667 I0.0063 J0.0108
G2 X33.2825 Y44.6017 Z-3.0 I0.0062 J-0.0108
G2 X33.2638 Y44.5908 Z-3.0333 I-0.0125 J0.0
G2 Y44.6125 Z-3.0667 I0.0063 J0.0108
G2 X33.2825 Y44.6017 Z-3.1 I0.0062 J-0.0108
G2 X33.2638 Y44.5908 Z-3.1333 I-0.0125 J0.0
G2 Y44.6125 Z-3.1667 I0.0063 J0.0108
G2 X33.2825 Y44.6017 Z-3.2 I0.0062 J-0.0108
G2 X33.2638 Y44.5908 I-0.0125 J0.0
G2 Y44.6125 I0.0063 J0.0108
G2 X33.2825 Y44.6017 I0.0062 J-0.0108
G0 Z3.0
G0 X33.2496 Y36.3244
G1 F1000.0 Z0.0
G2 F2000.0 X33.2308 Y36.3136 Z-0.0333 I-0.0125 J0.0
G2 Y36.3352 Z-0.0667 I0.0063 J0.0108
G2 X33.2496 Y36.3244 Z-0.1 I0.0063 J-0.0108
G2 X33.2308 Y36.3136 Z-0.1333 I-0.0125 J0.0
G2 Y36.3352 Z-0.1667 I0.0063 J0.0108
G2 X33.2496 Y36.3244 Z-0.2 I0.0063 J-0.0108
G2 X33.2308 Y36.3136 Z-0.2333 I-0.0125 J0.0
G2 Y36.3352 Z-0.2667 I0.0063 J0.0108
G2 X33.2496 Y36.3244 Z-0.3 I0.0063 J-0.0108
G2 X33.2308 Y36.3136 Z-0.3333 I-0.0125 J0.0
G2 Y36.3352 Z-0.3667 I0.0063 J0.0108
G2 X33.2496 Y36.3244 Z-0.4 I0.0063 J-0.0108
G2 X33.2308 Y36.3136 Z-0.4333 I-0.0125 J0.0
G2 Y36.3352 Z-0.4667 I0.0063 J0.0108
G2 X33.2496 Y36.3244 Z-0.5 I0.0063 J-0.0108
G2 X33.2308 Y36.3136 Z-0.5333 I-0.0125 J0.0
G2 Y36.3352 Z-0.5667 I0.0063 J0.0108
G2 X33.2496 Y36.3244 Z-0.6 I0.0063 J-0.0108
G2 X33.2308 Y36.3136 Z-0.6333 I-0.0125 J0.0
G2 Y36.3352 Z-0.6667 I0.0063 J0.0108
G2 X33.2496 Y36.3244 Z-0.7 I0.0063 J-0.0108
G2 X33.2308 Y36.3136 Z-0.7333 I-0.0125 J0.0
G2 Y36.3352 Z-0.7667 I0.0063 J0.0108
G2 X33.2496 Y36.3244 Z-0.8 I0.0063 J-0.0108
G2 X33.2308 Y36.3136 Z-0.8333 I-0.0125 J0.0
G2 Y36.3352 Z-0.8667 I0.0063 J0.0108
G2 X33.2496 Y36.3244 Z-0.9 I0.0063 J-0.0108
G2 X33.2308 Y36.3136 Z-0.9333 I-0.0125 J0.0
G2 Y36.3352 Z-0.9667 I0.0063 J0.0108
G2 X33.2496 Y36.3244 Z-1.0 I0.0063 J-0.0108
G2 X33.2308 Y36.3136 Z-1.0333 I-0.0125 J0.0
G2 Y36.3352 Z-1.0667 I0.0063 J0.0108
G2 X33.2496 Y36.3244 Z-1.1 I0.0063 J-0.0108
G2 X33.2308 Y36.3136 Z-1.1333 I-0.0125 J0.0
G2 Y36.3352 Z-1.1667 I0.0063 J0.0108
G2 X33.2496 Y36.3244 Z-1.2 I0.0063 J-0.0108
G2 X33.2308 Y36.3136 Z-1.2333 I-0.0125 J0.0
G2 Y36.3352 Z-1.2667 I0.0063 J0.0108
G2 X33.2496 Y36.3244 Z-1.3 I0.0063 J-0.0108
G2 X33.2308 Y36.3136 Z-1.3333 I-0.0125 J0.0
G2 Y36.3352 Z-1.3667 I0.0063 J0.0108
G2 X33.2496 Y36.3244 Z-1.4 I0.0063 J-0.0108
G2 X33.2308 Y36.3136 Z-1.4333 I-0.0125 J0.0
G2 Y36.3352 Z-1.4667 I0.0063 J0.0108
G2 X33.2496 Y36.3244 Z-1.5 I0.0063 J-0.0108
G2 X33.2308 Y36.3136 Z-1.5333 I-0.0125 J0.0
G2 Y36.3352 Z-1.5667 I0.0063 J0.0108
G2 X33.2496 Y36.3244 Z-1.6 I0.0063 J-0.0108
G2 X33.2308 Y36.3136 Z-1.6333 I-0.0125 J0.0
G2 Y36.3352 Z-1.6667 I0.0063 J0.0108
G2 X33.2496 Y36.3244 Z-1.7 I0.0063 J-0.0108
G2 X33.2308 Y36.3136 Z-1.7333 I-0.0125 J0.0
G2 Y36.3352 Z-1.7667 I0.0063 J0.0108
G2 X33.2496 Y36.3244 Z-1.8 I0.0063 J-0.0108
G2 X33.2308 Y36.3136 Z-1.8333 I-0.0125 J0.0
G2 Y36.3352 Z-1.8667 I0.0063 J0.0108
G2 X33.2496 Y36.3244 Z-1.9 I0.0063 J-0.0108
G2 X33.2308 Y36.3136 Z-1.9333 I-0.0125 J0.0
G2 Y36.3352 Z-1.9667 I0.0063 J0.0108
G2 X33.2496 Y36.3244 Z-2.0 I0.0063 J-0.0108
G2 X33.2308 Y36.3136 Z-2.0333 I-0.0125 J0.0
G2 Y36.3352 Z-2.0667 I0.0063 J0.0108
G2 X33.2496 Y36.3244 Z-2.1 I0.0063 J-0.0108
G2 X33.2308 Y36.3136 Z-2.1333 I-0.0125 J0.0
G2 Y36.3352 Z-2.1667 I0.0063 J0.0108
G2 X33.2496 Y36.3244 Z-2.2 I0.0063 J-0.0108
G2 X33.2308 Y36.3136 Z-2.2333 I-0.0125 J0.0
G2 Y36.3352 Z-2.2667 I0.0063 J0.0108
G2 X33.2496 Y36.3244 Z-2.3 I0.0063 J-0.0108
G2 X33.2308 Y36.3136 Z-2.3333 I-0.0125 J0.0
G2 Y36.3352 Z-2.3667 I0.0063 J0.0108
G2 X33.2496 Y36.3244 Z-2.4 I0.0063 J-0.0108
G2 X33.2308 Y36.3136 Z-2.4333 I-0.0125 J0.0
G2 Y36.3352 Z-2.4667 I0.0063 J0.0108
G2 X33.2496 Y36.3244 Z-2.5 I0.0063 J-0.0108
G2 X33.2308 Y36.3136 Z-2.5333 I-0.0125 J0.0
G2 Y36.3352 Z-2.5667 I0.0063 J0.0108
G2 X33.2496 Y36.3244 Z-2.6 I0.0063 J-0.0108
G2 X33.2308 Y36.3136 Z-2.6333 I-0.0125 J0.0
G2 Y36.3352 Z-2.6667 I0.0063 J0.0108
G2 X33.2496 Y36.3244 Z-2.7 I0.0063 J-0.0108
G2 X33.2308 Y36.3136 Z-2.7333 I-0.0125 J0.0
G2 Y36.3352 Z-2.7667 I0.0063 J0.0108
G2 X33.2496 Y36.3244 Z-2.8 I0.0063 J-0.0108
G2 X33.2308 Y36.3136 Z-2.8333 I-0.0125 J0.0
G2 Y36.3352 Z-2.8667 I0.0063 J0.0108
G2 X33.2496 Y36.3244 Z-2.9 I0.0063 J-0.0108
G2 X33.2308 Y36.3136 Z-2.9333 I-0.0125 J0.0
G2 Y36.3352 Z-2.9667 I0.0063 J0.0108
G2 X33.2496 Y36.3244 Z-3.0 I0.0062 J-0.0108
G2 X33.2308 Y36.3136 Z-3.0333 I-0.0125 J0.0
G2 Y36.3352 Z-3.0667 I0.0063 J0.0108
G2 X33.2496 Y36.3244 Z-3.1 I0.0062 J-0.0108
G2 X33.2308 Y36.3136 Z-3.1333 I-0.0125 J0.0
G2 Y36.3352 Z-3.1667 I0.0063 J0.0108
G2 X33.2496 Y36.3244 Z-3.2 I0.0062 J-0.0108
G2 X33.2308 Y36.3136 I-0.0125 J0.0
G2 Y36.3352 I0.0063 J0.0108
G2 X33.2496 Y36.3244 I0.0062 J-0.0108
G0 Z3.0
G0 X33.253 Y28.1355
G1 F1000.0 Z0.0
G2 F2000.0 X33.2342 Y28.1247 Z-0.0333 I-0.0125 J0.0
G2 Y28.1463 Z-0.0667 I0.0063 J0.0108
G2 X33.253 Y28.1355 Z-0.1 I0.0063 J-0.0108
G2 X33.2342 Y28.1247 Z-0.1333 I-0.0125 J0.0
G2 Y28.1463 Z-0.1667 I0.0063 J0.0108
G2 X33.253 Y28.1355 Z-0.2 I0.0063 J-0.0108
G2 X33.2342 Y28.1247 Z-0.2333 I-0.0125 J0.0
G2 Y28.1463 Z-0.2667 I0.0063 J0.0108
G2 X33.253 Y28.1355 Z-0.3 I0.0063 J-0.0108
G2 X33.2342 Y28.1247 Z-0.3333 I-0.0125 J0.0
G2 Y28.1463 Z-0.3667 I0.0063 J0.0108
G2 X33.253 Y28.1355 Z-0.4 I0.0063 J-0.0108
G2 X33.2342 Y28.1247 Z-0.4333 I-0.0125 J0.0
G2 Y28.1463 Z-0.4667 I0.0063 J0.0108
G2 X33.253 Y28.1355 Z-0.5 I0.0063 J-0.0108
G2 X33.2342 Y28.1247 Z-0.5333 I-0.0125 J0.0
G2 Y28.1463 Z-0.5667 I0.0063 J0.0108
G2 X33.253 Y28.1355 Z-0.6 I0.0063 J-0.0108
G2 X33.2342 Y28.1247 Z-0.6333 I-0.0125 J0.0
G2 Y28.1463 Z-0.6667 I0.0063 J0.0108
G2 X33.253 Y28.1355 Z-0.7 I0.0063 J-0.0108
G2 X33.2342 Y28.1247 Z-0.7333 I-0.0125 J0.0
G2 Y28.1463 Z-0.7667 I0.0063 J0.0108
G2 X33.253 Y28.1355 Z-0.8 I0.0063 J-0.0108
G2 X33.2342 Y28.1247 Z-0.8333 I-0.0125 J0.0
G2 Y28.1463 Z-0.8667 I0.0063 J0.0108
G2 X33.253 Y28.1355 Z-0.9 I0.0063 J-0.0108
G2 X33.2342 Y28.1247 Z-0.9333 I-0.0125 J0.0
G2 Y28.1463 Z-0.9667 I0.0063 J0.0108
G2 X33.253 Y28.1355 Z-1.0 I0.0063 J-0.0108
G2 X33.2342 Y28.1247 Z-1.0333 I-0.0125 J0.0
G2 Y28.1463 Z-1.0667 I0.0063 J0.0108
G2 X33.253 Y28.1355 Z-1.1 I0.0063 J-0.0108
G2 X33.2342 Y28.1247 Z-1.1333 I-0.0125 J0.0
G2 Y28.1463 Z-1.1667 I0.0063 J0.0108
G2 X33.253 Y28.1355 Z-1.2 I0.0063 J-0.0108
G2 X33.2342 Y28.1247 Z-1.2333 I-0.0125 J0.0
G2 Y28.1463 Z-1.2667 I0.0063 J0.0108
G2 X33.253 Y28.1355 Z-1.3 I0.0063 J-0.0108
G2 X33.2342 Y28.1247 Z-1.3333 I-0.0125 J0.0
G2 Y28.1463 Z-1.3667 I0.0063 J0.0108
G2 X33.253 Y28.1355 Z-1.4 I0.0063 J-0.0108
G2 X33.2342 Y28.1247 Z-1.4333 I-0.0125 J0.0
G2 Y28.1463 Z-1.4667 I0.0063 J0.0108
G2 X33.253 Y28.1355 Z-1.5 I0.0063 J-0.0108
G2 X33.2342 Y28.1247 Z-1.5333 I-0.0125 J0.0
G2 Y28.1463 Z-1.5667 I0.0063 J0.0108
G2 X33.253 Y28.1355 Z-1.6 I0.0063 J-0.0108
G2 X33.2342 Y28.1247 Z-1.6333 I-0.0125 J0.0
G2 Y28.1463 Z-1.6667 I0.0063 J0.0108
G2 X33.253 Y28.1355 Z-1.7 I0.0063 J-0.0108
G2 X33.2342 Y28.1247 Z-1.7333 I-0.0125 J0.0
G2 Y28.1463 Z-1.7667 I0.0063 J0.0108
G2 X33.253 Y28.1355 Z-1.8 I0.0063 J-0.0108
G2 X33.2342 Y28.1247 Z-1.8333 I-0.0125 J0.0
G2 Y28.1463 Z-1.8667 I0.0063 J0.0108
G2 X33.253 Y28.1355 Z-1.9 I0.0063 J-0.0108
G2 X33.2342 Y28.1247 Z-1.9333 I-0.0125 J0.0
G2 Y28.1463 Z-1.9667 I0.0063 J0.0108
G2 X33.253 Y28.1355 Z-2.0 I0.0063 J-0.0108
G2 X33.2342 Y28.1247 Z-2.0333 I-0.0125 J0.0
G2 Y28.1463 Z-2.0667 I0.0063 J0.0108
G2 X33.253 Y28.1355 Z-2.1 I0.0063 J-0.0108
G2 X33.2342 Y28.1247 Z-2.1333 I-0.0125 J0.0
G2 Y28.1463 Z-2.1667 I0.0063 J0.0108
G2 X33.253 Y28.1355 Z-2.2 I0.0063 J-0.0108
G2 X33.2342 Y28.1247 Z-2.2333 I-0.0125 J0.0
G2 Y28.1463 Z-2.2667 I0.0063 J0.0108
G2 X33.253 Y28.1355 Z-2.3 I0.0063 J-0.0108
G2 X33.2342 Y28.1247 Z-2.3333 I-0.0125 J0.0
G2 Y28.1463 Z-2.3667 I0.0063 J0.0108
G2 X33.253 Y28.1355 Z-2.4 I0.0063 J-0.0108
G2 X33.2342 Y28.1247 Z-2.4333 I-0.0125 J0.0
G2 Y28.1463 Z-2.4667 I0.0063 J0.0108
G2 X33.253 Y28.1355 Z-2.5 I0.0063 J-0.0108
G2 X33.2342 Y28.1247 Z-2.5333 I-0.0125 J0.0
G2 Y28.1463 Z-2.5667 I0.0063 J0.0108
G2 X33.253 Y28.1355 Z-2.6 I0.0063 J-0.0108
G2 X33.2342 Y28.1247 Z-2.6333 I-0.0125 J0.0
G2 Y28.1463 Z-2.6667 I0.0063 J0.0108
G2 X33.253 Y28.1355 Z-2.7 I0.0063 J-0.0108
G2 X33.2342 Y28.1247 Z-2.7333 I-0.0125 J0.0
G2 Y28.1463 Z-2.7667 I0.0063 J0.0108
G2 X33.253 Y28.1355 Z-2.8 I0.0063 J-0.0108
G2 X33.2342 Y28.1247 Z-2.8333 I-0.0125 J0.0
G2 Y28.1463 Z-2.8667 I0.0063 J0.0108
G2 X33.253 Y28.1355 Z-2.9 I0.0063 J-0.0108
G2 X33.2342 Y28.1247 Z-2.9333 I-0.0125 J0.0
G2 Y28.1463 Z-2.9667 I0.0063 J0.0108
G2 X33.253 Y28.1355 Z-3.0 I0.0062 J-0.0108
G2 X33.2342 Y28.1247 Z-3.0333 I-0.0125 J0.0
G2 Y28.1463 Z-3.0667 I0.0063 J0.0108
G2 X33.253 Y28.1355 Z-3.1 I0.0062 J-0.0108
G2 X33.2342 Y28.1247 Z-3.1333 I-0.0125 J0.0
G2 Y28.1463 Z-3.1667 I0.0063 J0.0108
G2 X33.253 Y28.1355 Z-3.2 I0.0062 J-0.0108
G2 X33.2342 Y28.1247 I-0.0125 J0.0
G2 Y28.1463 I0.0063 J0.0108
G2 X33.253 Y28.1355 I0.0062 J-0.0108
G0 Z3.0
G0 X33.6041 Y17.9085
G1 F1000.0 Z0.0
G2 F2000.0 X33.5854 Y17.8977 Z-0.0333 I-0.0125 J0.0
G2 Y17.9194 Z-0.0667 I0.0063 J0.0108
G2 X33.6041 Y17.9085 Z-0.1 I0.0063 J-0.0108
G2 X33.5854 Y17.8977 Z-0.1333 I-0.0125 J0.0
G2 Y17.9194 Z-0.1667 I0.0063 J0.0108
G2 X33.6041 Y17.9085 Z-0.2 I0.0063 J-0.0108
G2 X33.5854 Y17.8977 Z-0.2333 I-0.0125 J0.0
G2 Y17.9194 Z-0.2667 I0.0063 J0.0108
G2 X33.6041 Y17.9085 Z-0.3 I0.0063 J-0.0108
G2 X33.5854 Y17.8977 Z-0.3333 I-0.0125 J0.0
G2 Y17.9194 Z-0.3667 I0.0063 J0.0108
G2 X33.6041 Y17.9085 Z-0.4 I0.0063 J-0.0108
G2 X33.5854 Y17.8977 Z-0.4333 I-0.0125 J0.0
G2 Y17.9194 Z-0.4667 I0.0063 J0.0108
G2 X33.6041 Y17.9085 Z-0.5 I0.0063 J-0.0108
G2 X33.5854 Y17.8977 Z-0.5333 I-0.0125 J0.0
G2 Y17.9194 Z-0.5667 I0.0063 J0.0108
G2 X33.6041 Y17.9085 Z-0.6 I0.0063 J-0.0108
G2 X33.5854 Y17.8977 Z-0.6333 I-0.0125 J0.0
G2 Y17.9194 Z-0.6667 I0.0063 J0.0108
G2 X33.6041 Y17.9085 Z-0.7 I0.0063 J-0.0108
G2 X33.5854 Y17.8977 Z-0.7333 I-0.0125 J0.0
G2 Y17.9194 Z-0.7667 I0.0063 J0.0108
G2 X33.6041 Y17.9085 Z-0.8 I0.0063 J-0.0108
G2 X33.5854 Y17.8977 Z-0.8333 I-0.0125 J0.0
G2 Y17.9194 Z-0.8667 I0.0063 J0.0108
G2 X33.6041 Y17.9085 Z-0.9 I0.0063 J-0.0108
G2 X33.5854 Y17.8977 Z-0.9333 I-0.0125 J0.0
G2 Y17.9194 Z-0.9667 I0.0063 J0.0108
G2 X33.6041 Y17.9085 Z-1.0 I0.0063 J-0.0108
G2 X33.5854 Y17.8977 Z-1.0333 I-0.0125 J0.0
G2 Y17.9194 Z-1.0667 I0.0063 J0.0108
G2 X33.6041 Y17.9085 Z-1.1 I0.0063 J-0.0108
G2 X33.5854 Y17.8977 Z-1.1333 I-0.0125 J0.0
G2 Y17.9194 Z-1.1667 I0.0063 J0.0108
G2 X33.6041 Y17.9085 Z-1.2 I0.0063 J-0.0108
G2 X33.5854 Y17.8977 Z-1.2333 I-0.0125 J0.0
G2 Y17.9194 Z-1.2667 I0.0063 J0.0108
G2 X33.6041 Y17.9085 Z-1.3 I0.0063 J-0.0108
G2 X33.5854 Y17.8977 Z-1.3333 I-0.0125 J0.0
G2 Y17.9194 Z-1.3667 I0.0063 J0.0108
G2 X33.6041 Y17.9085 Z-1.4 I0.0063 J-0.0108
G2 X33.5854 Y17.8977 Z-1.4333 I-0.0125 J0.0
G2 Y17.9194 Z-1.4667 I0.0063 J0.0108
G2 X33.6041 Y17.9085 Z-1.5 I0.0063 J-0.0108
G2 X33.5854 Y17.8977 Z-1.5333 I-0.0125 J0.0
G2 Y17.9194 Z-1.5667 I0.0063 J0.0108
G2 X33.6041 Y17.9085 Z-1.6 I0.0063 J-0.0108
G2 X33.5854 Y17.8977 Z-1.6333 I-0.0125 J0.0
G2 Y17.9194 Z-1.6667 I0.0063 J0.0108
G2 X33.6041 Y17.9085 Z-1.7 I0.0063 J-0.0108
G2 X33.5854 Y17.8977 Z-1.7333 I-0.0125 J0.0
G2 Y17.9194 Z-1.7667 I0.0063 J0.0108
G2 X33.6041 Y17.9085 Z-1.8 I0.0063 J-0.0108
G2 X33.5854 Y17.8977 Z-1.8333 I-0.0125 J0.0
G2 Y17.9194 Z-1.8667 I0.0063 J0.0108
G2 X33.6041 Y17.9085 Z-1.9 I0.0063 J-0.0108
G2 X33.5854 Y17.8977 Z-1.9333 I-0.0125 J0.0
G2 Y17.9194 Z-1.9667 I0.0063 J0.0108
G2 X33.6041 Y17.9085 Z-2.0 I0.0063 J-0.0108
G2 X33.5854 Y17.8977 Z-2.0333 I-0.0125 J0.0
G2 Y17.9194 Z-2.0667 I0.0063 J0.0108
G2 X33.6041 Y17.9085 Z-2.1 I0.0063 J-0.0108
G2 X33.5854 Y17.8977 Z-2.1333 I-0.0125 J0.0
G2 Y17.9194 Z-2.1667 I0.0063 J0.0108
G2 X33.6041 Y17.9085 Z-2.2 I0.0063 J-0.0108
G2 X33.5854 Y17.8977 Z-2.2333 I-0.0125 J0.0
G2 Y17.9194 Z-2.2667 I0.0063 J0.0108
G2 X33.6041 Y17.9085 Z-2.3 I0.0063 J-0.0108
G2 X33.5854 Y17.8977 Z-2.3333 I-0.0125 J0.0
G2 Y17.9194 Z-2.3667 I0.0063 J0.0108
G2 X33.6041 Y17.9085 Z-2.4 I0.0063 J-0.0108
G2 X33.5854 Y17.8977 Z-2.4333 I-0.0125 J0.0
G2 Y17.9194 Z-2.4667 I0.0063 J0.0108
G2 X33.6041 Y17.9085 Z-2.5 I0.0063 J-0.0108
G2 X33.5854 Y17.8977 Z-2.5333 I-0.0125 J0.0
G2 Y17.9194 Z-2.5667 I0.0063 J0.0108
G2 X33.6041 Y17.9085 Z-2.6 I0.0063 J-0.0108
G2 X33.5854 Y17.8977 Z-2.6333 I-0.0125 J0.0
G2 Y17.9194 Z-2.6667 I0.0063 J0.0108
G2 X33.6041 Y17.9085 Z-2.7 I0.0063 J-0.0108
G2 X33.5854 Y17.8977 Z-2.7333 I-0.0125 J0.0
G2 Y17.9194 Z-2.7667 I0.0063 J0.0108
G2 X33.6041 Y17.9085 Z-2.8 I0.0063 J-0.0108
G2 X33.5854 Y17.8977 Z-2.8333 I-0.0125 J0.0
G2 Y17.9194 Z-2.8667 I0.0063 J0.0108
G2 X33.6041 Y17.9085 Z-2.9 I0.0063 J-0.0108
G2 X33.5854 Y17.8977 Z-2.9333 I-0.0125 J0.0
G2 Y17.9194 Z-2.9667 I0.0063 J0.0108
G2 X33.6041 Y17.9085 Z-3.0 I0.0062 J-0.0108
G2 X33.5854 Y17.8977 Z-3.0333 I-0.0125 J0.0
G2 Y17.9194 Z-3.0667 I0.0063 J0.0108
G2 X33.6041 Y17.9085 Z-3.1 I0.0062 J-0.0108
G2 X33.5854 Y17.8977 Z-3.1333 I-0.0125 J0.0
G2 Y17.9194 Z-3.1667 I0.0063 J0.0108
G2 X33.6041 Y17.9085 Z-3.2 I0.0062 J-0.0108
G2 X33.5854 Y17.8977 I-0.0125 J0.0
G2 Y17.9194 I0.0063 J0.0108
G2 X33.6041 Y17.9085 I0.0062 J-0.0108
G0 Z3.0
G0 X6.5655 Y42.0975
G1 F1000.0 Z0.0
G2 F2000.0 X6.5467 Y42.0866 Z-0.0333 I-0.0125 J0.0
G2 Y42.1083 Z-0.0667 I0.0063 J0.0108
G2 X6.5655 Y42.0975 Z-0.1 I0.0062 J-0.0108
G2 X6.5467 Y42.0866 Z-0.1333 I-0.0125 J0.0
G2 Y42.1083 Z-0.1667 I0.0063 J0.0108
G2 X6.5655 Y42.0975 Z-0.2 I0.0062 J-0.0108
G2 X6.5467 Y42.0866 Z-0.2333 I-0.0125 J0.0
G2 Y42.1083 Z-0.2667 I0.0063 J0.0108
G2 X6.5655 Y42.0975 Z-0.3 I0.0062 J-0.0108
G2 X6.5467 Y42.0866 Z-0.3333 I-0.0125 J0.0
G2 Y42.1083 Z-0.3667 I0.0063 J0.0108
G2 X6.5655 Y42.0975 Z-0.4 I0.0062 J-0.0108
G2 X6.5467 Y42.0866 Z-0.4333 I-0.0125 J0.0
G2 Y42.1083 Z-0.4667 I0.0063 J0.0108
G2 X6.5655 Y42.0975 Z-0.5 I0.0062 J-0.0108
G2 X6.5467 Y42.0866 Z-0.5333 I-0.0125 J0.0
G2 Y42.1083 Z-0.5667 I0.0063 J0.0108
G2 X6.5655 Y42.0975 Z-0.6 I0.0062 J-0.0108
G2 X6.5467 Y42.0866 Z-0.6333 I-0.0125 J0.0
G2 Y42.1083 Z-0.6667 I0.0063 J0.0108
G2 X6.5655 Y42.0975 Z-0.7 I0.0062 J-0.0108
G2 X6.5467 Y42.0866 Z-0.7333 I-0.0125 J0.0
G2 Y42.1083 Z-0.7667 I0.0063 J0.0108
G2 X6.5655 Y42.0975 Z-0.8 I0.0062 J-0.0108
G2 X6.5467 Y42.0866 Z-0.8333 I-0.0125 J0.0
G2 Y42.1083 Z-0.8667 I0.0063 J0.0108
G2 X6.5655 Y42.0975 Z-0.9 I0.0062 J-0.0108
G2 X6.5467 Y42.0866 Z-0.9333 I-0.0125 J0.0
G2 Y42.1083 Z-0.9667 I0.0063 J0.0108
G2 X6.5655 Y42.0975 Z-1.0 I0.0062 J-0.0108
G2 X6.5467 Y42.0866 Z-1.0333 I-0.0125 J0.0
G2 Y42.1083 Z-1.0667 I0.0063 J0.0108
G2 X6.5655 Y42.0975 Z-1.1 I0.0062 J-0.0108
G2 X6.5467 Y42.0866 Z-1.1333 I-0.0125 J0.0
G2 Y42.1083 Z-1.1667 I0.0063 J0.0108
G2 X6.5655 Y42.0975 Z-1.2 I0.0062 J-0.0108
G2 X6.5467 Y42.0866 Z-1.2333 I-0.0125 J0.0
G2 Y42.1083 Z-1.2667 I0.0063 J0.0108
G2 X6.5655 Y42.0975 Z-1.3 I0.0062 J-0.0108
G2 X6.5467 Y42.0866 Z-1.3333 I-0.0125 J0.0
G2 Y42.1083 Z-1.3667 I0.0063 J0.0108
G2 X6.5655 Y42.0975 Z-1.4 I0.0062 J-0.0108
G2 X6.5467 Y42.0866 Z-1.4333 I-0.0125 J0.0
G2 Y42.1083 Z-1.4667 I0.0063 J0.0108
G2 X6.5655 Y42.0975 Z-1.5 I0.0062 J-0.0108
G2 X6.5467 Y42.0866 Z-1.5333 I-0.0125 J0.0
G2 Y42.1083 Z-1.5667 I0.0063 J0.0108
G2 X6.5655 Y42.0975 Z-1.6 I0.0062 J-0.0108
G2 X6.5467 Y42.0866 Z-1.6333 I-0.0125 J0.0
